!!!COM: Haydn, Franz Joseph
!!!OPR: Symphony in D Major
!!!OTL: Affettuoso 
!!!OMV: 2
!!!SCT: H I:93
!!!SCA: Thematisch-bibliographisches Werkevererzeichnis (A. van Hoboken)
!!!YOR: Dover Edition
!!!EED: Frances Bennion
!!!ENC: Frances Bennion
!!!CDT: 1732/3/31/-1809/5/31/
!!!OCY: Österreich
!!!YEC: Copyright (c) 1994, 2000 Center for Computer Assisted Research in the Humanities
!!!YEM: Rights to all derivative editions reserved.
!!!YEM: Refer to licensing agreement for further details.
!!!YEN: United States of America
**kern	**kern	**kern	**kern	**kern	**kern	**kern	**kern	**kern	**kern	**kern	**kern	**kern	**kern	**kern	**kern
*k[f#]	*k[]	*k[]	*k[f#]	*k[f#]	*k[f#]	*k[f#]	*k[f#]	*k[f#]	*k[f#]	*k[f#]	*k[f#]	*k[f#]	*k[]	*k[]	*k[]
*G:	*G:	*G:	*G:	*G:	*G:	*G:	*G:	*G:	*G:	*G:	*G:	*G:	*G:	*G:	*G:
*clefF	*clefF	*clefF4	*clefF	*clefF	*clefC3	*clefF4	*clefF4	*clefF	*clefF	*clefF	*clefF4	*clefF4	*clefF	*clefF	*clefF
*M2/2	*M2/2	*M2/2	*M2/2	*M2/2	*M2/2	*M2/2	*M2/2	*M2/2	*M2/2	*M2/2	*M2/2	*M2/2	*M2/2	*M2/2	*M2/2
*tb96	*tb96	*tb96	*tb96	*tb96	*tb96	*tb96	*tb96	*tb96	*tb96	*tb96	*tb96	*tb96	*tb96	*tb96	*tb96
=1	=1	=1	=1	=1	=1	=1	=1	=1	=1	=1	=1	=1	=1	=1	=1
1r	1r	1r	4g	4B	4d	4G	1r	1r	1r	1r	1r	1r	1r	1r	1r
.	.	.	8d	4r	4r	4r	.	.	.	.	.	.	.	.	.
.	.	.	16r	.	.	.	.	.	.	.	.	.	.	.	.
.	.	.	16b	.	.	.	.	.	.	.	.	.	.	.	.
.	.	.	4g	4B	4d	4G	.	.	.	.	.	.	.	.	.
.	.	.	8d	4r	4r	4r	.	.	.	.	.	.	.	.	.
.	.	.	16r	.	.	.	.	.	.	.	.	.	.	.	.
.	.	.	16gg	.	.	.	.	.	.	.	.	.	.	.	.
=2	=2	=2	=2	=2	=2	=2	=2	=2	=2	=2	=2	=2	=2	=2	=2
1r	1r	1r	4dd	4e	4g	[3..G	1r	1r	1r	1r	1r	1r	1r	1r	1r
.	.	.	8.cc	4f#	4a	.	.	.	.	.	.	.	.	.	.
.	.	.	32b	.	.	.	.	.	.	.	.	.	.	.	.
.	.	.	32cc	.	.	.	.	.	.	.	.	.	.	.	.
.	.	.	8b	8g	8d	.	.	.	.	.	.	.	.	.	.
.	.	.	.	.	.	24G]	.	.	.	.	.	.	.	.	.
.	.	.	6..r	4.r	4.r	4.r	.	.	.	.	.	.	.	.	.
.	.	.	48r	.	.	.	.	.	.	.	.	.	.	.	.
.	.	.	16ee	.	.	.	.	.	.	.	.	.	.	.	.
=3	=3	=3	=3	=3	=3	=3	=3	=3	=3	=3	=3	=3	=3	=3	=3
1r	1r	1r	4b	4e	4c	4c	1r	1r	1r	1r	1r	1r	1r	1r	1r
.	.	.	8a	4r	4r	4r	.	.	.	.	.	.	.	.	.
.	.	.	16r	.	.	.	.	.	.	.	.	.	.	.	.
.	.	.	16ee	.	.	.	.	.	.	.	.	.	.	.	.
.	.	.	4a	4d	4B	4B	.	.	.	.	.	.	.	.	.
.	.	.	8g	4r	4r	4r	.	.	.	.	.	.	.	.	.
.	.	.	16r	.	.	.	.	.	.	.	.	.	.	.	.
.	.	.	16d	.	.	.	.	.	.	.	.	.	.	.	.
=4	=4	=4	=4	=4	=4	=4	=4	=4	=4	=4	=4	=4	=4	=4	=4
1r	1r	1r	8cc	8a	8d	8F#	1r	1r	1r	1r	1r	1r	1r	1r	1r
.	.	.	16r	8r	8r	8r	.	.	.	.	.	.	.	.	.
.	.	.	16dd	.	.	.	.	.	.	.	.	.	.	.	.
.	.	.	8b	8g	8d	8G	.	.	.	.	.	.	.	.	.
.	.	.	16r	8r	8r	8r	.	.	.	.	.	.	.	.	.
.	.	.	16cc	.	.	.	.	.	.	.	.	.	.	.	.
.	.	.	8a	8f#	8d	8D	.	.	.	.	.	.	.	.	.
.	.	.	4.r	4.r	4.r	4.r	.	.	.	.	.	.	.	.	.
=5	=5	=5	=5	=5	=5	=5	=5	=5	=5	=5	=5	=5	=5	=5	=5
1r	1r	1r	4g	4B	4d	4G	1r	1r	1r	1r	1r	1r	1r	1r	1r
.	.	.	8d	4r	4r	4r	.	.	.	.	.	.	.	.	.
.	.	.	16r	.	.	.	.	.	.	.	.	.	.	.	.
.	.	.	16b	.	.	.	.	.	.	.	.	.	.	.	.
.	.	.	4g	4B	4d	4G	.	.	.	.	.	.	.	.	.
.	.	.	8d	4r	4r	4r	.	.	.	.	.	.	.	.	.
.	.	.	16r	.	.	.	.	.	.	.	.	.	.	.	.
.	.	.	16gg	.	.	.	.	.	.	.	.	.	.	.	.
=6	=6	=6	=6	=6	=6	=6	=6	=6	=6	=6	=6	=6	=6	=6	=6
1r	1r	1r	4dd	4e	4g	[3..G	1r	1r	1r	1r	1r	1r	1r	1r	1r
.	.	.	8.cc	4f#	4a	.	.	.	.	.	.	.	.	.	.
.	.	.	32b	.	.	.	.	.	.	.	.	.	.	.	.
.	.	.	32cc	.	.	.	.	.	.	.	.	.	.	.	.
.	.	.	8b	8g	8d	.	.	.	.	.	.	.	.	.	.
.	.	.	.	.	.	24G]	.	.	.	.	.	.	.	.	.
.	.	.	6..r	4.r	4.r	4.r	.	.	.	.	.	.	.	.	.
.	.	.	48r	.	.	.	.	.	.	.	.	.	.	.	.
.	.	.	16ee	.	.	.	.	.	.	.	.	.	.	.	.
=7	=7	=7	=7	=7	=7	=7	=7	=7	=7	=7	=7	=7	=7	=7	=7
1r	1r	1r	4b	2d#	[2B	2F#	1r	1r	1r	1r	1r	1r	1r	1r	1r
.	.	.	8a	.	.	.	.	.	.	.	.	.	.	.	.
.	.	.	16r	.	.	.	.	.	.	.	.	.	.	.	.
.	.	.	16ff#	.	.	.	.	.	.	.	.	.	.	.	.
.	.	.	4a	4e	4B]	4E	.	.	.	.	.	.	.	.	.
.	.	.	8g	8.r	8.r	8.r	.	.	.	.	.	.	.	.	.
.	.	.	16r	.	.	.	.	.	.	.	.	.	.	.	.
.	.	.	16bb	16gg	16c#	16c#	.	.	.	.	.	.	.	.	.
=8	=8	=8	=8	=8	=8	=8	=8	=8	=8	=8	=8	=8	=8	=8	=8
1r	1r	1r	8aa	8ff#	8d	8d	1r	1r	1r	1r	1r	1r	1r	1r	1r
.	.	.	16r	16r	16r	16r	.	.	.	.	.	.	.	.	.
.	.	.	16gg	16ee	16b	16G	.	.	.	.	.	.	.	.	.
.	.	.	8ff#	8dd	8a	8A	.	.	.	.	.	.	.	.	.
.	.	.	16r	16r	16r	16r	.	.	.	.	.	.	.	.	.
.	.	.	16ee	16cc#	16g	16AA	.	.	.	.	.	.	.	.	.
.	.	.	8dd	8dd	8f#	8D	.	.	.	.	.	.	.	.	.
.	.	.	4.r	4.r	4.r	4.r	.	.	.	.	.	.	.	.	.
=9	=9	=9	=9	=9	=9	=9	=9	=9	=9	=9	=9	=9	=9	=9	=9
1r	1r	1r	4g	4B	4d	4G	4G	1r	1r	1r	4G	1r	1r	1r	1r
.	.	.	8d	4r	4r	4r	4r	.	.	.	8D	.	.	.	.
.	.	.	16r	.	.	.	.	.	.	.	16r	.	.	.	.
.	.	.	16b	.	.	.	.	.	.	.	16B	.	.	.	.
.	.	.	4g	4B	4d	4G	4G	.	.	.	4G	.	.	.	.
.	.	.	8d	4r	4r	4r	4r	.	.	.	8D	.	.	.	.
.	.	.	16r	.	.	.	.	.	.	.	16r	.	.	.	.
.	.	.	16gg	.	.	.	.	.	.	.	16g	.	.	.	.
=10	=10	=10	=10	=10	=10	=10	=10	=10	=10	=10	=10	=10	=10	=10	=10
1r	1r	1r	4dd	4e	4g	[3..G	[3..G	1r	1r	1r	4d	1r	1r	1r	1r
.	.	.	8.cc	4f#	4a	.	.	.	.	.	8.c	.	.	.	.
.	.	.	32b	.	.	.	.	.	.	.	32B	.	.	.	.
.	.	.	32cc	.	.	.	.	.	.	.	32c	.	.	.	.
.	.	.	8b	8g	8d	.	.	.	.	.	8B	.	.	.	.
.	.	.	.	.	.	24G]	24G]	.	.	.	.	.	.	.	.
.	.	.	6..r	4.r	4.r	4.r	4.r	.	.	.	6..r	.	.	.	.
.	.	.	48r	.	.	.	.	.	.	.	48r	.	.	.	.
.	.	.	16ee	.	.	.	.	.	.	.	16e	.	.	.	.
=11	=11	=11	=11	=11	=11	=11	=11	=11	=11	=11	=11	=11	=11	=11	=11
1r	1r	1r	4b	4e	4c	4c	4c	1r	1r	1r	4B	1r	1r	1r	1r
.	.	.	8a	4r	4r	4r	4r	.	.	.	8A	.	.	.	.
.	.	.	16r	.	.	.	.	.	.	.	16r	.	.	.	.
.	.	.	16ee	.	.	.	.	.	.	.	16e	.	.	.	.
.	.	.	4a	4d	4B	4B	4B	.	.	.	4A	.	.	.	.
.	.	.	8g	4r	4r	4r	4r	.	.	.	8G	.	.	.	.
.	.	.	16r	.	.	.	.	.	.	.	16r	.	.	.	.
.	.	.	16d	.	.	.	.	.	.	.	16D	.	.	.	.
=12	=12	=12	=12	=12	=12	=12	=12	=12	=12	=12	=12	=12	=12	=12	=12
1r	1r	1r	8cc	8a	8d	8F#	8F#	1r	1r	1r	8c	1r	1r	1r	1r
.	.	.	16r	8r	8r	8r	8r	.	.	.	16r	.	.	.	.
.	.	.	16dd	.	.	.	.	.	.	.	16d	.	.	.	.
.	.	.	8b	8g	8d	8G	8G	.	.	.	8B	.	.	.	.
.	.	.	16r	8r	8r	8r	8r	.	.	.	16r	.	.	.	.
.	.	.	16cc	.	.	.	.	.	.	.	16c	.	.	.	.
.	.	.	8a	8f#	8d	8D	8D	.	.	.	8A	.	.	.	.
.	.	.	4.r	4.r	4.r	4.r	4.r	.	.	.	4.r	.	.	.	.
=13	=13	=13	=13	=13	=13	=13	=13	=13	=13	=13	=13	=13	=13	=13	=13
1r	1r	1r	4g	4B	4d	4G	4G	1r	1r	1r	4G	1r	1r	1r	1r
.	.	.	8d	4r	4r	4r	4r	.	.	.	8D	.	.	.	.
.	.	.	16r	.	.	.	.	.	.	.	16r	.	.	.	.
.	.	.	16b	.	.	.	.	.	.	.	16B	.	.	.	.
.	.	.	4g	4B	4d	4G	4G	.	.	.	4G	.	.	.	.
.	.	.	8d	4r	4r	4r	4r	.	.	.	8D	.	.	.	.
.	.	.	16r	.	.	.	.	.	.	.	16r	.	.	.	.
.	.	.	16gg	.	.	.	.	.	.	.	16g	.	.	.	.
=14	=14	=14	=14	=14	=14	=14	=14	=14	=14	=14	=14	=14	=14	=14	=14
1r	1r	1r	4dd	4e	4g	[3..G	[3..G	1r	1r	1r	4d	1r	1r	1r	1r
.	.	.	8.cc	4f#	4a	.	.	.	.	.	8.c	.	.	.	.
.	.	.	32b	.	.	.	.	.	.	.	32B	.	.	.	.
.	.	.	32cc	.	.	.	.	.	.	.	32c	.	.	.	.
.	.	.	8b	8g	8d	.	.	.	.	.	8B	.	.	.	.
.	.	.	.	.	.	24G]	24G]	.	.	.	.	.	.	.	.
.	.	.	6..r	4.r	4.r	4.r	4.r	.	.	.	6..r	.	.	.	.
.	.	.	48r	.	.	.	.	.	.	.	48r	.	.	.	.
.	.	.	16ee	.	.	.	.	.	.	.	16e	.	.	.	.
=15	=15	=15	=15	=15	=15	=15	=15	=15	=15	=15	=15	=15	=15	=15	=15
1r	1r	1r	4b	2d#	[2B	2F#	2F#	1r	1r	1r	4B	1r	1r	1r	1r
.	.	.	8a	.	.	.	.	.	.	.	8A	.	.	.	.
.	.	.	16r	.	.	.	.	.	.	.	16r	.	.	.	.
.	.	.	16ff#	.	.	.	.	.	.	.	16f#	.	.	.	.
.	.	.	4a	4e	4B]	4E	4E	.	.	.	4A	.	.	.	.
.	.	.	8g	8.r	8.r	8.r	8.r	.	.	.	8G	.	.	.	.
.	.	.	16r	.	.	.	.	.	.	.	16r	.	.	.	.
.	.	.	16bb	16gg	16c#	16c#	16c#	.	.	.	16B	.	.	.	.
=16	=16	=16	=16	=16	=16	=16	=16	=16	=16	=16	=16	=16	=16	=16	=16
1r	1r	1r	8aa	8ff#	8d	8d	8d	1r	1r	1r	8A	1r	1r	1r	1r
.	.	.	16r	16r	16r	16r	16r	.	.	.	16r	.	.	.	.
.	.	.	16gg	16ee	16b	16G	16G	.	.	.	16g	.	.	.	.
.	.	.	8ff#	8dd	8a	8A	8A	.	.	.	8f#	.	.	.	.
.	.	.	16r	16r	16r	16r	16r	.	.	.	16r	.	.	.	.
.	.	.	16ee	16cc#	16g	16AA	16AA	.	.	.	16e	.	.	.	.
.	.	.	8dd	8dd	8f#	8D	8D	.	.	.	8d	.	.	.	.
.	.	.	4.r	4.r	4.r	4.r	4.r	.	.	.	4.r	.	.	.	.
=17	=17	=17	=17	=17	=17	=17	=17	=17	=17	=17	=17	=17	=17	=17	=17
4ddd	4g	4GG	4dd	4G 4g	4B-	4B-	4B-	4ddd	4dd	4dd	4B-	4B-	4g	4G	4dd
8gg	8.r	8.r	8gg	8b-	8d	8G	8G	8gg	8gg	8b-	8G	8G	8.r	8.r	8.r
16r	.	.	16r	16r	16r	16r	16r	16r	16r	16r	16r	16r	.	.	.
16gg	16g	16GG	16gg	16dd	16d	16B-	16B-	16gg	16gg	16dd	16B-	16B-	16g	16G	16dd
8.ff#	8.dd	8.D	8.ff#	8.cc	8.d	8.A	8.A	8.ff#	8.ff#	8.dd	8.A	8.A	8.g	8.G	8.dd
16gg	16dd	16D	16gg	16b-	16d	16G	16G	16gg	16gg	16dd	16G	16G	16g	16G	16dd
8aa	8.dd	8.D	8aa	8a	8d	8F#	8F#	8aa	8aa	8dd	8F#	8F#	8.g	8.G	8.dd
8r	.	.	8r	8r	8r	8r	8r	8r	8r	8r	8r	8r	.	.	.
.	16dd	16D	.	.	.	.	.	.	.	.	.	.	16g	16G	16dd
=18	=18	=18	=18	=18	=18	=18	=18	=18	=18	=18	=18	=18	=18	=18	=18
8dd	4g	4GG	8dd	[12..g	4B-	4B-	4B-	8dd	8dd	4dd	4d	4d	4g	4G	4dd
32ee	.	.	32ee	.	.	.	.	32ee	32ee	.	.	.	.	.	.
.	.	.	.	96g]	.	.	.	.	.	.	.	.	.	.	.
32ff#	.	.	32ff#	32a	.	.	.	32ff#	32ff#	.	.	.	.	.	.
32gg	.	.	32gg	32b-	.	.	.	32gg	32gg	.	.	.	.	.	.
32aa	.	.	32aa	32cc	.	.	.	32aa	32aa	.	.	.	.	.	.
8bb-	8.r	8.r	8bb-	8dd	8G	8G	8G	8bb-	8bb-	8b-	8B-	8B-	8.r	8.r	8.r
16r	.	.	16r	16r	16r	16r	16r	16r	16r	16r	16r	16r	.	.	.
16bb-	16g	16GG	16bb-	16gg	16G	16G	16G	16bb-	16bb-	16dd	16d	16d	16g	16G	16dd
8.aa	8.dd	8.D	8.aa	8.ff#	8.d	8.d	8.d	8.aa	8.aa	8.cc	8.c	8.c	8.g	8.G	8.dd
16bb-	16dd	16D	16bb-	16gg	16d	16D	16D	16bb-	16bb-	16b-	16B-	16B-	16g	16G	16dd
8ccc	8.dd	8.D	8ccc	8aa	8d	8D	8D	8ccc	8ccc	8a	8A	8A	8.g	8.G	8.dd
8r	.	.	8r	8r	8r	8r	8r	8r	8r	8r	8r	8r	.	.	.
.	16dd	16D	.	.	.	.	.	.	.	.	.	.	16g	16G	16dd
=19	=19	=19	=19	=19	=19	=19	=19	=19	=19	=19	=19	=19	=19	=19	=19
16dd	4g	4GG	16dd	[12..g	8.b-	8.B-	8.B-	16dd	16dd	4dd	4B-	4B-	4g	4G	4g
32ee	.	.	32ee	.	.	.	.	32ee	32ee	.	.	.	.	.	.
32ff#	.	.	32ff#	.	.	.	.	32ff#	32ff#	.	.	.	.	.	.
32gg	.	.	32gg	.	.	.	.	32gg	32gg	.	.	.	.	.	.
.	.	.	.	96g]	.	.	.	.	.	.	.	.	.	.	.
32aa	.	.	32aa	32a	.	.	.	32aa	32aa	.	.	.	.	.	.
32bb-	.	.	32bb-	32b-	32g	32G	32G	32bb-	32bb-	.	.	.	.	.	.
32ccc	.	.	32ccc	32cc	32d	32D	32D	32ccc	32ccc	.	.	.	.	.	.
8.ddd	8.g	2.r	8.ddd	8.dd	8.B-	8.BB-	8.BB-	8.ddd	8.ddd	8.dd	8.G	8.G	8.cc	8.c	8.g
16ddd	16g	.	16ddd	16dd	16g	16BB-	16BB-	16ddd	16ddd	16dd	16G	16G	16cc	16c	16g
8.ccc	8.g	.	8.ccc	8.cc	8.g	8.E-	8.E-	8.ccc	8.ccc	8.gg	8.G	8.G	8.cc	8.c	8.g
16bb-	16g	.	16bb-	16b-	16g	16D	16D	16bb-	16bb-	16gg	16G	16G	16cc	16c	16g
8.aa	8.g	.	8.aa	8.a	8.g	8.C	8.C	8.aa	8.aa	8.gg	8.G	8.G	8.cc	8.c	8.g
16gg	16g	.	16gg	16g	16e	16C	16C	16gg	16gg	16gg	16G	16G	16cc	16c	16g
=20	=20	=20	=20	=20	=20	=20	=20	=20	=20	=20	=20	=20	=20	=20	=20
8.ff#	4dd	4D	8.ff#	8.f#	4d	4D	4D	8.ff#	8.ff#	8.ff#	4D	4D	4g	4G	4dd
16ee	.	.	16ee	16e	.	.	.	16ee	16ee	16ee	.	.	.	.	.
8.dd	2.r	2.r	8.dd	8.d	8.r	8.r	8.r	8.dd	8.dd	8.dd	8.r	8.r	2.r	2.r	2.r
16dd	.	.	16d	16d	16d	16D	16D	16dd	16dd	16dd	16D	16D	.	.	.
8.ee-	.	.	8.e-	8.e-	8.e-	8.E-	8.E-	8.ee-	8.ee-	8.ee-	8.E-	8.E-	.	.	.
16dd	.	.	16d	16d	16d	16D	16D	16dd	16dd	16dd	16D	16D	.	.	.
8.ee-	.	.	8.e-	8.e-	8.e-	8.E-	8.E-	8.ee-	8.ee-	8.ee-	8.E-	8.E-	.	.	.
16cc#	.	.	16c#	16c#	16c#	16C#	16C#	16cc#	16cc#	16cc#	16C#	16C#	.	.	.
=21	=21	=21	=21	=21	=21	=21	=21	=21	=21	=21	=21	=21	=21	=21	=21
4dd	4dd	4D	4d	4d	4d	4D	4D	4dd	4dd	4dd	4D	4D	4g	4G	4dd
8.r	8.r	8.r	8.r	8.r	8.r	8.r	8.r	8.r	8.r	8.r	8.r	8.r	8.r	8.r	8.r
16ddd	16dd	16D	16d	16d	16d	16D	16D	16ddd	16dd	16dd	16d	16d	16g	16G	16dd
8.bb-	8.dd	8.GG	8.B-	8.B-	8.B-	8.BB-	8.BB-	8.bb-	8.b-	8.b-	8.B-	8.B-	8.cc	8.c	8.dd
16aa	16dd	16GG	16A	16A	16A	16AA	16AA	16aa	16a	16a	16A	16A	16cc	16c	16dd
8.bb-	8.g	8.GG	8.B-	8.B-	8.B-	8.BB-	8.BB-	8.bb-	8.b-	8.b-	8.B-	8.B-	8.cc	8.c	8.gg
16gg	16g	16GG	16G	16G	16G	16GG	16GG	16gg	16g	16g	16G	16G	16cc	16c	16gg
=22	=22	=22	=22	=22	=22	=22	=22	=22	=22	=22	=22	=22	=22	=22	=22
4ddd	4dd	4D	4d	4d	4d	4D	4D	4ddd	4dd	4dd	4D	4D	4g	4G	4dd
2.r	2.r	2.r	2.r	2.r	2.r	2.r	2.r	2.r	2.r	2.r	2.r	2.r	2.r	2.r	2.r
=23	=23	=23	=23	=23	=23	=23	=23	=23	=23	=23	=23	=23	=23	=23	=23
1r	1r	1r	4g	4B	4d	4G	4G	1r	1r	1r	1r	1r	1r	1r	1r
.	.	.	8d	4r	4r	4r	4r	.	.	.	.	.	.	.	.
.	.	.	16r	.	.	.	.	.	.	.	.	.	.	.	.
.	.	.	16b	.	.	.	.	.	.	.	.	.	.	.	.
.	.	.	4g	4B	4d	4G	4G	.	.	.	.	.	.	.	.
.	.	.	8d	4r	4r	4r	4r	.	.	.	.	.	.	.	.
.	.	.	16r	.	.	.	.	.	.	.	.	.	.	.	.
.	.	.	16gg	.	.	.	.	.	.	.	.	.	.	.	.
=24	=24	=24	=24	=24	=24	=24	=24	=24	=24	=24	=24	=24	=24	=24	=24
1r	1r	1r	4dd	4e	4g	[3..G	[3..G	1r	1r	1r	1r	1r	1r	1r	1r
.	.	.	8.cc	4f#	4a	.	.	.	.	.	.	.	.	.	.
.	.	.	32b	.	.	.	.	.	.	.	.	.	.	.	.
.	.	.	32cc	.	.	.	.	.	.	.	.	.	.	.	.
.	.	.	8b	8g	8d	.	.	.	.	.	.	.	.	.	.
.	.	.	.	.	.	24G]	24G]	.	.	.	.	.	.	.	.
.	.	.	6..r	4.r	4.r	4.r	4.r	.	.	.	.	.	.	.	.
.	.	.	48r	.	.	.	.	.	.	.	.	.	.	.	.
.	.	.	16ee	.	.	.	.	.	.	.	.	.	.	.	.
=25	=25	=25	=25	=25	=25	=25	=25	=25	=25	=25	=25	=25	=25	=25	=25
1r	1r	1r	4b	4g#	4f	4d	4d	1r	1r	1r	1r	1r	1r	1r	1r
.	.	.	8cc	8a	8e	8c	8c	.	.	.	.	.	.	.	.
.	.	.	16r	8r	8r	8r	8r	.	.	.	.	.	.	.	.
.	.	.	16ccc	.	.	.	.	.	.	.	.	.	.	.	.
.	.	.	4ff#	4cc	4a	4D	4D	.	.	.	.	.	.	.	.
.	.	.	8gg	8b	8g	8E	8E	.	.	.	.	.	.	.	.
.	.	.	16r	16r	16r	16r	16r	.	.	.	.	.	.	.	.
.	.	.	16gg#	16dd	16B	16B	16B	.	.	.	.	.	.	.	.
=26	=26	=26	=26	=26	=26	=26	=26	=26	=26	=26	=26	=26	=26	=26	=26
1r	1r	1r	8aa	8ee	8c	8c	8c	1r	1r	1r	1r	1r	1r	1r	1r
.	.	.	16r	16r	16r	16r	16r	.	.	.	.	.	.	.	.
.	.	.	16bb	16dd	16d	16B	16B	.	.	.	.	.	.	.	.
.	.	.	8ccc	8cc	8e	8A	8A	.	.	.	.	.	.	.	.
.	.	.	16r	16r	16r	16r	16r	.	.	.	.	.	.	.	.
.	.	.	16ff#	16a	16c	16D	16D	.	.	.	.	.	.	.	.
.	.	.	8gg	8b	8B	8G	8G	.	.	.	.	.	.	.	.
.	.	.	6..r	4.r	4.r	4.r	4.r	.	.	.	.	.	.	.	.
.	.	.	48r	.	.	.	.	.	.	.	.	.	.	.	.
.	.	.	16G	.	.	.	.	.	.	.	.	.	.	.	.
=27	=27	=27	=27	=27	=27	=27	=27	=27	=27	=27	=27	=27	=27	=27	=27
1r	1r	1r	4f	4d	4G	4BB	4BB	1r	1r	1r	1r	1r	1r	1r	1r
.	.	.	8e	8c	8G	8C	8C	.	.	.	.	.	.	.	.
.	.	.	16r	8r	8r	8r	8r	.	.	.	.	.	.	.	.
.	.	.	16g	.	.	.	.	.	.	.	.	.	.	.	.
.	.	.	4B	4G	4D	4F	4F	.	.	.	.	.	.	.	.
.	.	.	8c	8c	8E	8E	8E	.	.	.	.	.	.	.	.
.	.	.	16r	8r	8r	8r	8r	.	.	.	.	.	.	.	.
.	.	.	16G	.	.	.	.	.	.	.	.	.	.	.	.
=28	=28	=28	=28	=28	=28	=28	=28	=28	=28	=28	=28	=28	=28	=28	=28
1r	1r	1r	2.ee	1cc	4..r	4..r	1r	1r	1r	1r	1r	1r	1r	1r	1r
.	.	.	.	.	16A	16A	.	.	.	.	.	.	.	.	.
.	.	.	.	.	2f#	2f#	.	.	.	.	.	.	.	.	.
.	.	.	8.r	.	.	.	.	.	.	.	.	.	.	.	.
.	.	.	16ee	.	.	.	.	.	.	.	.	.	.	.	.
=29	=29	=29	=29	=29	=29	=29	=29	=29	=29	=29	=29	=29	=29	=29	=29
1r	1r	1r	12dd	8b	8g	8g	1r	1r	1r	1r	1r	1r	1r	1r	1r
.	.	.	12gg	.	.	.	.	.	.	.	.	.	.	.	.
.	.	.	.	8r	8r	8r	.	.	.	.	.	.	.	.	.
.	.	.	12dd#	.	.	.	.	.	.	.	.	.	.	.	.
.	.	.	12ff#	8g	8c	8c	.	.	.	.	.	.	.	.	.
.	.	.	12ee	.	.	.	.	.	.	.	.	.	.	.	.
.	.	.	.	8r	8r	8r	.	.	.	.	.	.	.	.	.
.	.	.	12cc	.	.	.	.	.	.	.	.	.	.	.	.
.	.	.	12b	8g 8B	8d	8d	.	.	.	.	.	.	.	.	.
.	.	.	12g	.	.	.	.	.	.	.	.	.	.	.	.
.	.	.	.	8r	8r	8r	.	.	.	.	.	.	.	.	.
.	.	.	12d	.	.	.	.	.	.	.	.	.	.	.	.
.	.	.	12c	8f# 8A	8d	8D	.	.	.	.	.	.	.	.	.
.	.	.	12A	.	.	.	.	.	.	.	.	.	.	.	.
.	.	.	.	8r	8r	8r	.	.	.	.	.	.	.	.	.
.	.	.	12f#	.	.	.	.	.	.	.	.	.	.	.	.
=30	=30	=30	=30	=30	=30	=30	=30	=30	=30	=30	=30	=30	=30	=30	=30
12gg	12g	12GG	12G	12G	12G	4GG	4GG	12gg	12gg	12b	12G	12G	12cc	12e	12dd
12gg	12g	12GG	12d	12B	12G	.	.	12gg	12gg	12b	12D	12D	12cc	12e	12dd
12gg	12g	12GG	12d	12B	12G	.	.	12gg	12gg	12b	12BB	12BB	12cc	12e	12dd
4gg	4g	4GG	12d	12B	12G	4BB	4BB	4gg	4gg	4b	4GG	4GG	8cc	4e	4dd
.	.	.	12d	12B	12G	.	.	.	.	.	.	.	.	.	.
.	.	.	.	.	.	.	.	.	.	.	.	.	3..r	.	.
.	.	.	12d	12B	12G	.	.	.	.	.	.	.	.	.	.
2r	2r	12GG	12d	12B	12G	4D	4D	2r	2r	2r	2r	2r	.	2r	2r
.	.	12GG	12d	12B	12G	.	.	.	.	.	.	.	.	.	.
.	.	12GG	12d	12B	12G	.	.	.	.	.	.	.	.	.	.
.	.	12GG	12d	12B	12G	4BB	4BB	.	.	.	.	.	.	.	.
.	.	12GG	12d	12B	12G	.	.	.	.	.	.	.	.	.	.
.	.	12GG	12d	12B	12G	.	.	.	.	.	.	.	.	.	.
.	.	.	.	.	.	.	.	.	.	.	.	.	24r	.	.
=31	=31	=31	=31	=31	=31	=31	=31	=31	=31	=31	=31	=31	=31	=31	=31
12dd	12g	12GG	12d	12B	12G	4GG	4GG	12dd	3..dd	12b	12G	12G	12cc	12e	12dd
12dd	12g	12GG	12d	12B	12G	.	.	12dd	.	12b	12D	12D	12cc	12e	12dd
12dd	12g	12GG	12d	12B	12G	.	.	12dd	.	12b	12BB	12BB	12cc	12e	12dd
4dd	4g	4GG	12d	12B	12G	4BB	4BB	4dd	.	4b	4GG	4GG	4cc	4e	4dd
.	.	.	12d	12B	12G	.	.	.	.	.	.	.	.	.	.
.	.	.	12d	12B	12G	.	.	.	.	.	.	.	.	.	.
2r	2r	2r	12d	12B	12G	4D	4D	2r	.	2r	2r	2r	2r	2r	2r
.	.	.	12d	12B	12G	.	.	.	12ee	.	.	.	.	.	.
.	.	.	12d	12B	12G	.	.	.	12ff#	.	.	.	.	.	.
.	.	.	12d	12B	12G	4BB	4BB	.	12gg	.	.	.	.	.	.
.	.	.	12d	12B	12G	.	.	.	12aa	.	.	.	.	.	.
.	.	.	12d	12B	12G	.	.	.	12bb	.	.	.	.	.	.
=32	=32	=32	=32	=32	=32	=32	=32	=32	=32	=32	=32	=32	=32	=32	=32
12ccc	12dd	12D	12c 12d	12A	12F#	4FF#	4FF#	12ccc	12ccc	12a	12D	12D	12dd	12g	12dd
12aa	12dd	12D	12c 12d	12A	12F#	.	.	12aa	12aa	12cc	12F#	12F#	12dd	12g	12dd
12ff#	12dd	12D	12c 12d	12A	12F#	.	.	12ff#	12ff#	12a	12A	12A	12dd	12g	12dd
4dd	4dd	4D	12d 12c	12A	12F#	4AA	4AA	4dd	4dd	4f#	4c	4c	4dd	4g	4dd
.	.	.	12c 12d	12A	12F#	.	.	.	.	.	.	.	.	.	.
.	.	.	12c 12d	12A	12F#	.	.	.	.	.	.	.	.	.	.
2r	2r	2r	12d 12c	12A	12F#	4D	4D	2r	2r	2r	2r	2r	2r	2r	2r
.	.	.	12c 12d	12A	12F#	.	.	.	.	.	.	.	.	.	.
.	.	.	12c 12d	12A	12F#	.	.	.	.	.	.	.	.	.	.
.	.	.	12c 12d	12A	12F#	4AA	4AA	.	.	.	.	.	.	.	.
.	.	.	12d 12c	12A	12F#	.	.	.	.	.	.	.	.	.	.
.	.	.	12c 12d	12A	12F#	.	.	.	.	.	.	.	.	.	.
=33	=33	=33	=33	=33	=33	=33	=33	=33	=33	=33	=33	=33	=33	=33	=33
12cc	12dd	12D	12d 12c	12A	12F#	4FF#	4FF#	12cc	3..dd	12a	12F#	12F#	12dd	12g	12dd
12cc	12dd	12D	12d 12c	12A	12F#	.	.	12cc	.	12a	12F#	12F#	12dd	12g	12dd
12cc	12dd	12D	12d 12c	12A	12F#	.	.	12cc	.	12a	12F#	12F#	12dd	12g	12dd
4cc	4dd	4D	12d 12c	12A	12F#	4AA	4AA	4cc	.	4a	4F#	4F#	4dd	4g	4dd
.	.	.	12d 12c	12A	12F#	.	.	.	.	.	.	.	.	.	.
.	.	.	12d 12c	12A	12F#	.	.	.	.	.	.	.	.	.	.
2r	2r	2r	12d 12c	12A	12F#	4D	4D	2r	.	2r	2r	2r	2r	2r	2r
.	.	.	12d 12c	12A	12F#	.	.	.	12ff#	.	.	.	.	.	.
.	.	.	12c 12d	12A	12F#	.	.	.	12gg	.	.	.	.	.	.
.	.	.	12d 12c	12A	12F#	4FF#	4FF#	.	12aa	.	.	.	.	.	.
.	.	.	12c 12d	12A	12F#	.	.	.	12bb	.	.	.	.	.	.
.	.	.	12d 12c	12A	12F#	.	.	.	12ccc	.	.	.	.	.	.
=34	=34	=34	=34	=34	=34	=34	=34	=34	=34	=34	=34	=34	=34	=34	=34
4b	12g	12GG	12d 12B	12B	12G	4GG	4GG	4b	12bb	4b	4G	4G	12ee	12cc	12dd
.	12g	12GG	12d 12B	12B	12G	.	.	.	12gg	.	.	.	12ee	12cc	12dd
.	12g	12GG	12B 12d	12B	12G	.	.	.	12dd	.	.	.	12ee	12cc	12dd
4r	4g	4GG	12d 12B	12B	12G	4G	4G	4r	8.dd	4r	4r	4r	4ee	4cc	4dd
.	.	.	12d 12B	12B	12G	.	.	.	.	.	.	.	.	.	.
.	.	.	12d 12B	12B	12G	.	.	.	.	.	.	.	.	.	.
.	.	.	.	.	.	.	.	.	16bb	.	.	.	.	.	.
4aa	2r	2r	12A 12d#	12B	12F#	4FF#	4FF#	4aa	12bb	4dd#	4F#	4F#	2r	2r	2r
.	.	.	12d# 12A	12B	12F#	.	.	.	12dd#	.	.	.	.	.	.
.	.	.	12d# 12A	12B	12F#	.	.	.	12dd#	.	.	.	.	.	.
4r	.	.	12A 12d#	12B	12F#	4F#	4F#	4r	8.dd#	4r	4r	4r	.	.	.
.	.	.	12A 12d#	12B	12F#	.	.	.	.	.	.	.	.	.	.
.	.	.	12d# 12A	12B	12F#	.	.	.	.	.	.	.	.	.	.
.	.	.	.	.	.	.	.	.	16bb	.	.	.	.	.	.
=35	=35	=35	=35	=35	=35	=35	=35	=35	=35	=35	=35	=35	=35	=35	=35
4gg	1r	1r	12e	12B	12G	4GG	4GG	4gg	12bb	8ee	4E	4E	1r	1r	1r
.	.	.	12e	12B	12G	.	.	.	12gg	.	.	.	.	.	.
.	.	.	.	.	.	.	.	.	.	2..r	.	.	.	.	.
.	.	.	12e	12B	12G	.	.	.	12ee	.	.	.	.	.	.
2.r	.	.	12f	12d	12B	4GG#	4GG#	2.r	12bb	.	2.r	2.r	.	.	.
.	.	.	12f	12d	12B	.	.	.	12ccc#	.	.	.	.	.	.
.	.	.	12f	12d	12B	.	.	.	12ddd	.	.	.	.	.	.
.	.	.	12f#	12d	12A	4AA	4AA	.	12dd	.	.	.	.	.	.
.	.	.	12f#	12d	12A	.	.	.	12aa	.	.	.	.	.	.
.	.	.	12f#	12d	12A	.	.	.	12ff#	.	.	.	.	.	.
.	.	.	12g	12c#	12E	4AA	4AA	.	12gg	.	.	.	.	.	.
.	.	.	12e	12e	12E	.	.	.	12ee	.	.	.	.	.	.
.	.	.	12c#	12g	12E	.	.	.	12cc#	.	.	.	.	.	.
=36	=36	=36	=36	=36	=36	=36	=36	=36	=36	=36	=36	=36	=36	=36	=36
1r	1r	1r	12d	4f#	4D	4D	4D	1r	4dd	1r	1r	1r	1r	1r	1r
.	.	.	12d	.	.	.	.	.	.	.	.	.	.	.	.
.	.	.	12e	.	.	.	.	.	.	.	.	.	.	.	.
.	.	.	12f#	2.r	2.r	2.r	2.r	.	2.r	.	.	.	.	.	.
.	.	.	12g	.	.	.	.	.	.	.	.	.	.	.	.
.	.	.	12a	.	.	.	.	.	.	.	.	.	.	.	.
.	.	.	12b	.	.	.	.	.	.	.	.	.	.	.	.
.	.	.	12cc#	.	.	.	.	.	.	.	.	.	.	.	.
.	.	.	12dd	.	.	.	.	.	.	.	.	.	.	.	.
.	.	.	12ee	.	.	.	.	.	.	.	.	.	.	.	.
.	.	.	12ff#	.	.	.	.	.	.	.	.	.	.	.	.
.	.	.	12aa	.	.	.	.	.	.	.	.	.	.	.	.
=37	=37	=37	=37	=37	=37	=37	=37	=37	=37	=37	=37	=37	=37	=37	=37
[1ddd	1r	1r	12gg	12b	1dd	[1d	1r	[1ddd	1r	1r	1r	1r	1r	1r	1r
.	.	.	12gg	12b	.	.	.	.	.	.	.	.	.	.	.
.	.	.	12ff#	12a	.	.	.	.	.	.	.	.	.	.	.
.	.	.	12gg	12b	.	.	.	.	.	.	.	.	.	.	.
.	.	.	12ff#	12a	.	.	.	.	.	.	.	.	.	.	.
.	.	.	12gg	12b	.	.	.	.	.	.	.	.	.	.	.
.	.	.	12ff#	12a	.	.	.	.	.	.	.	.	.	.	.
.	.	.	12ff#	12a	.	.	.	.	.	.	.	.	.	.	.
.	.	.	12ee#	12g#	.	.	.	.	.	.	.	.	.	.	.
.	.	.	12ff#	12a	.	.	.	.	.	.	.	.	.	.	.
.	.	.	12ee#	12g#	.	.	.	.	.	.	.	.	.	.	.
.	.	.	12ff#	12a	.	.	.	.	.	.	.	.	.	.	.
=38	=38	=38	=38	=38	=38	=38	=38	=38	=38	=38	=38	=38	=38	=38	=38
1ddd]	1r	1r	12ee	12g	2b	1d]	1r	1ddd]	1r	1r	1r	1r	1r	1r	1r
.	.	.	12ee	12g	.	.	.	.	.	.	.	.	.	.	.
.	.	.	12dd#	12f#	.	.	.	.	.	.	.	.	.	.	.
.	.	.	12ee	12g	.	.	.	.	.	.	.	.	.	.	.
.	.	.	12dd#	12f#	.	.	.	.	.	.	.	.	.	.	.
.	.	.	12ee	12g	.	.	.	.	.	.	.	.	.	.	.
.	.	.	12dd	12f#	2a	.	.	.	.	.	.	.	.	.	.
.	.	.	12dd	12f#	.	.	.	.	.	.	.	.	.	.	.
.	.	.	12cc#	12e	.	.	.	.	.	.	.	.	.	.	.
.	.	.	12dd	12f#	.	.	.	.	.	.	.	.	.	.	.
.	.	.	12cc#	12e	.	.	.	.	.	.	.	.	.	.	.
.	.	.	12dd	12f#	.	.	.	.	.	.	.	.	.	.	.
=39	=39	=39	=39	=39	=39	=39	=39	=39	=39	=39	=39	=39	=39	=39	=39
12bb	1r	1r	12b	4g	4b	2G	2G	12bb	1r	1r	1r	1r	1r	1r	1r
12ddd	.	.	12dd	.	.	.	.	12ddd	.	.	.	.	.	.	.
12ccc#	.	.	12cc#	.	.	.	.	12ccc#	.	.	.	.	.	.	.
12eee	.	.	12ee	4r	4r	.	.	12eee	.	.	.	.	.	.	.
12ddd	.	.	12dd	.	.	.	.	12ddd	.	.	.	.	.	.	.
12bb	.	.	12b	.	.	.	.	12bb	.	.	.	.	.	.	.
12aa	.	.	12a	12f#	4d	4A	4A	12aa	.	.	.	.	.	.	.
12ff#	.	.	12f#	12d	.	.	.	12ff#	.	.	.	.	.	.	.
12aa	.	.	12a	12f#	.	.	.	12aa	.	.	.	.	.	.	.
12gg	.	.	12g	12e	4A	4AA	4AA	12gg	.	.	.	.	.	.	.
12ee	.	.	12e	12c#	.	.	.	12ee	.	.	.	.	.	.	.
12cc#	.	.	12c#	12e	.	.	.	12cc#	.	.	.	.	.	.	.
=40	=40	=40	=40	=40	=40	=40	=40	=40	=40	=40	=40	=40	=40	=40	=40
4dd	1r	1r	12d	12d	4d	4D	4D	4dd	1r	1r	1r	1r	1r	1r	1r
.	.	.	12f#	12f#	.	.	.	.	.	.	.	.	.	.	.
.	.	.	12a	12a	.	.	.	.	.	.	.	.	.	.	.
2.r	.	.	12g#	12g#	2.r	2.r	2.r	2.r	.	.	.	.	.	.	.
.	.	.	12b	12b	.	.	.	.	.	.	.	.	.	.	.
.	.	.	12a	12a	.	.	.	.	.	.	.	.	.	.	.
.	.	.	12cc	12cc	.	.	.	.	.	.	.	.	.	.	.
.	.	.	12g#	12g#	.	.	.	.	.	.	.	.	.	.	.
.	.	.	12a	12a	.	.	.	.	.	.	.	.	.	.	.
.	.	.	12cc	12cc	.	.	.	.	.	.	.	.	.	.	.
.	.	.	12a	12a	.	.	.	.	.	.	.	.	.	.	.
.	.	.	12f#	12f#	.	.	.	.	.	.	.	.	.	.	.
=41	=41	=41	=41	=41	=41	=41	=41	=41	=41	=41	=41	=41	=41	=41	=41
1r	1r	1r	12d	12d	12D	1r	1r	1r	1r	1r	1r	1r	1r	1r	1r
.	.	.	12f#	12f#	12F#	.	.	.	.	.	.	.	.	.	.
.	.	.	12a	12a	12A	.	.	.	.	.	.	.	.	.	.
.	.	.	12g#	12g#	12G#	.	.	.	.	.	.	.	.	.	.
.	.	.	12b	12b	12B	.	.	.	.	.	.	.	.	.	.
.	.	.	12a	12a	12A	.	.	.	.	.	.	.	.	.	.
.	.	.	12cc	12cc	12c	.	.	.	.	.	.	.	.	.	.
.	.	.	12g#	12g#	12G#	.	.	.	.	.	.	.	.	.	.
.	.	.	12a	12a	12A	.	.	.	.	.	.	.	.	.	.
.	.	.	12cc	12cc	12c	.	.	.	.	.	.	.	.	.	.
.	.	.	12a	12a	12A	.	.	.	.	.	.	.	.	.	.
.	.	.	12f#	12f#	12F#	.	.	.	.	.	.	.	.	.	.
=42	=42	=42	=42	=42	=42	=42	=42	=42	=42	=42	=42	=42	=42	=42	=42
12dd	12dd	12D	12d	12d	12D	12D	12D	12dd	12dd	12d	12D	12D	12dd	12g	12dd
12ff#	12dd	12D	12f#	12f#	12F#	12F#	12F#	12ff#	12ff#	12f#	12F#	12F#	12dd	12g	12dd
12aa	12dd	12D	12a	12a	12A	12A	12A	12aa	12aa	12a	12A	12A	12dd	12g	12dd
12gg#	12dd	12D	12g#	12g#	12G#	12G#	12G#	12gg#	12gg#	12g#	12G#	12G#	12dd	12g	12dd
12bb	12dd	12D	12b	12b	12B	12B	12B	12bb	12bb	12b	12B	12B	12dd	12g	12dd
12aa	12dd	12D	12a	12a	12A	12A	12A	12aa	12aa	12a	12A	12A	12dd	12g	12dd
12ccc	12dd	12D	12dd	12dd	12c	12c	12c	12ccc	12ccc	12cc	12c	12c	12dd	12g	12dd
12aa	12dd	12D	12ff#	12ff#	12A	12A	12A	12aa	12aa	12ff#	12A	12A	12dd	12g	12dd
12ff#	12dd	12D	12aa	12aa	12F#	12F#	12F#	12ff#	12ff#	12aa	12F#	12F#	12dd	12g	12dd
12dd	12dd	12D	12ccc	12ff# 12a	12D	12D	12D	12dd	12dd	12ff#	12D	12D	12dd	12g	12dd
12ff#	12dd	12D	12ccc	12ff# 12a	12D	12D	12D	12ff#	12ff#	12ff#	12AA	12AA	12dd	12g	12dd
12aa	12dd	12D	12ccc	12a 12ff#	12D	12D	12D	12aa	12aa	12ff#	12FF#	12FF#	12dd	12g	12dd
=43	=43	=43	=43	=43	=43	=43	=43	=43	=43	=43	=43	=43	=43	=43	=43
8ccc	8dd	8D	8dd 8ccc 8d	8ff# 8a	8D	8D	8D	8ccc	8ccc	8ff#	8DD	8DD	8dd	8g	8dd
2..r	2..r	2..r	2..r	2..r	2..r	2..r	2..r	2..r	2..r	2..r	2..r	2..r	2..r	2..r	2..r
=44	=44	=44	=44	=44	=44	=44	=44	=44	=44	=44	=44	=44	=44	=44	=44
1r	1r	1r	4g	12G	4G	4G	4G	1r	1r	1r	1r	1r	1r	1r	1r
.	.	.	.	12B	.	.	.	.	.	.	.	.	.	.	.
.	.	.	.	12d	.	.	.	.	.	.	.	.	.	.	.
.	.	.	8d	12G	4r	4r	4r	.	.	.	.	.	.	.	.
.	.	.	.	12B	.	.	.	.	.	.	.	.	.	.	.
.	.	.	16r	.	.	.	.	.	.	.	.	.	.	.	.
.	.	.	.	12d	.	.	.	.	.	.	.	.	.	.	.
.	.	.	16b	.	.	.	.	.	.	.	.	.	.	.	.
.	.	.	4g	12G	4G	4G	4G	.	.	.	.	.	.	.	.
.	.	.	.	12B	.	.	.	.	.	.	.	.	.	.	.
.	.	.	.	12d	.	.	.	.	.	.	.	.	.	.	.
.	.	.	8d	12G	4r	4r	4r	.	.	.	.	.	.	.	.
.	.	.	.	12B	.	.	.	.	.	.	.	.	.	.	.
.	.	.	16r	.	.	.	.	.	.	.	.	.	.	.	.
.	.	.	.	12d	.	.	.	.	.	.	.	.	.	.	.
.	.	.	16gg	.	.	.	.	.	.	.	.	.	.	.	.
=45	=45	=45	=45	=45	=45	=45	=45	=45	=45	=45	=45	=45	=45	=45	=45
1r	1r	1r	4dd	12e	[2G	[2G	[2G	1r	1r	1r	1r	1r	1r	1r	1r
.	.	.	.	12g	.	.	.	.	.	.	.	.	.	.	.
.	.	.	.	12e	.	.	.	.	.	.	.	.	.	.	.
.	.	.	8.cc	12f#	.	.	.	.	.	.	.	.	.	.	.
.	.	.	.	12a	.	.	.	.	.	.	.	.	.	.	.
.	.	.	.	12f#	.	.	.	.	.	.	.	.	.	.	.
.	.	.	32b	.	.	.	.	.	.	.	.	.	.	.	.
.	.	.	32cc	.	.	.	.	.	.	.	.	.	.	.	.
.	.	.	8b	12g	4G]	4G]	4G]	.	.	.	.	.	.	.	.
.	.	.	.	12b	.	.	.	.	.	.	.	.	.	.	.
.	.	.	6..r	.	.	.	.	.	.	.	.	.	.	.	.
.	.	.	.	12g	.	.	.	.	.	.	.	.	.	.	.
.	.	.	.	12d	4r	4r	4r	.	.	.	.	.	.	.	.
.	.	.	.	12B	.	.	.	.	.	.	.	.	.	.	.
.	.	.	48r	12G	.	.	.	.	.	.	.	.	.	.	.
.	.	.	16ee	.	.	.	.	.	.	.	.	.	.	.	.
=46	=46	=46	=46	=46	=46	=46	=46	=46	=46	=46	=46	=46	=46	=46	=46
1r	1r	1r	4b	12e	4c	4c	4c	1r	1r	1r	1r	1r	1r	1r	1r
.	.	.	.	12f#	.	.	.	.	.	.	.	.	.	.	.
.	.	.	.	12g#	.	.	.	.	.	.	.	.	.	.	.
.	.	.	8a	12a	4r	4r	4r	.	.	.	.	.	.	.	.
.	.	.	.	12e	.	.	.	.	.	.	.	.	.	.	.
.	.	.	16r	.	.	.	.	.	.	.	.	.	.	.	.
.	.	.	.	12c	.	.	.	.	.	.	.	.	.	.	.
.	.	.	16ee	.	.	.	.	.	.	.	.	.	.	.	.
.	.	.	4a	12d	4B	4B	4B	.	.	.	.	.	.	.	.
.	.	.	.	12e	.	.	.	.	.	.	.	.	.	.	.
.	.	.	.	12f#	.	.	.	.	.	.	.	.	.	.	.
.	.	.	8g	12g	4r	4r	4r	.	.	.	.	.	.	.	.
.	.	.	.	12d	.	.	.	.	.	.	.	.	.	.	.
.	.	.	16r	.	.	.	.	.	.	.	.	.	.	.	.
.	.	.	.	12B	.	.	.	.	.	.	.	.	.	.	.
.	.	.	16d	.	.	.	.	.	.	.	.	.	.	.	.
=47	=47	=47	=47	=47	=47	=47	=47	=47	=47	=47	=47	=47	=47	=47	=47
1r	1r	1r	8cc	12A	4D	4F#	4F#	1r	1r	1r	1r	1r	1r	1r	1r
.	.	.	.	12d	.	.	.	.	.	.	.	.	.	.	.
.	.	.	16r	.	.	.	.	.	.	.	.	.	.	.	.
.	.	.	.	12a	.	.	.	.	.	.	.	.	.	.	.
.	.	.	16dd	.	.	.	.	.	.	.	.	.	.	.	.
.	.	.	8b	12B	4D	4G	4G	.	.	.	.	.	.	.	.
.	.	.	.	12d	.	.	.	.	.	.	.	.	.	.	.
.	.	.	16r	.	.	.	.	.	.	.	.	.	.	.	.
.	.	.	.	12g	.	.	.	.	.	.	.	.	.	.	.
.	.	.	16cc	.	.	.	.	.	.	.	.	.	.	.	.
.	.	.	8a	12f#	4D	4D	4D	.	.	.	.	.	.	.	.
.	.	.	.	12a	.	.	.	.	.	.	.	.	.	.	.
.	.	.	4.r	.	.	.	.	.	.	.	.	.	.	.	.
.	.	.	.	12f#	.	.	.	.	.	.	.	.	.	.	.
.	.	.	.	12d	4r	4r	4r	.	.	.	.	.	.	.	.
.	.	.	.	12c	.	.	.	.	.	.	.	.	.	.	.
.	.	.	.	12A	.	.	.	.	.	.	.	.	.	.	.
=48	=48	=48	=48	=48	=48	=48	=48	=48	=48	=48	=48	=48	=48	=48	=48
1dd	1r	1r	4g	12B-	4G	4G	4G	1dd	1gg	1b-	1G	1G	1r	1r	1r
.	.	.	.	12d	.	.	.	.	.	.	.	.	.	.	.
.	.	.	.	12g	.	.	.	.	.	.	.	.	.	.	.
.	.	.	8d	12G	4r	4r	4r	.	.	.	.	.	.	.	.
.	.	.	.	12B-	.	.	.	.	.	.	.	.	.	.	.
.	.	.	16r	.	.	.	.	.	.	.	.	.	.	.	.
.	.	.	.	12d	.	.	.	.	.	.	.	.	.	.	.
.	.	.	16b-	.	.	.	.	.	.	.	.	.	.	.	.
.	.	.	4g	12B-	4G	4G	4G	.	.	.	.	.	.	.	.
.	.	.	.	12d	.	.	.	.	.	.	.	.	.	.	.
.	.	.	.	12g	.	.	.	.	.	.	.	.	.	.	.
.	.	.	8d	12G	4r	4r	4r	.	.	.	.	.	.	.	.
.	.	.	.	12B-	.	.	.	.	.	.	.	.	.	.	.
.	.	.	16r	.	.	.	.	.	.	.	.	.	.	.	.
.	.	.	.	12d	.	.	.	.	.	.	.	.	.	.	.
.	.	.	16gg	.	.	.	.	.	.	.	.	.	.	.	.
=49	=49	=49	=49	=49	=49	=49	=49	=49	=49	=49	=49	=49	=49	=49	=49
4cc	1r	1r	4ff	12c	2c	2A	2A	4cc	4ff	2cc	2A	2A	1r	1r	1r
.	.	.	.	12e-	.	.	.	.	.	.	.	.	.	.	.
.	.	.	.	12f	.	.	.	.	.	.	.	.	.	.	.
2ff	.	.	8.ee-	12a	.	.	.	2ff	8.ee-	.	.	.	.	.	.
.	.	.	.	12cc	.	.	.	.	.	.	.	.	.	.	.
.	.	.	.	12f	.	.	.	.	.	.	.	.	.	.	.
.	.	.	32dd	.	.	.	.	.	32dd	.	.	.	.	.	.
.	.	.	32ee-	.	.	.	.	.	32ee-	.	.	.	.	.	.
.	.	.	2dd	12dd	4d	2B-	2B-	.	4dd	2f	2B-	2B-	.	.	.
.	.	.	.	12b-	.	.	.	.	.	.	.	.	.	.	.
.	.	.	.	12f	.	.	.	.	.	.	.	.	.	.	.
4ddd	.	.	.	12a-	4f	.	.	4ddd	4aa-	.	.	.	.	.	.
.	.	.	.	12f	.	.	.	.	.	.	.	.	.	.	.
.	.	.	.	12a-	.	.	.	.	.	.	.	.	.	.	.
=50	=50	=50	=50	=50	=50	=50	=50	=50	=50	=50	=50	=50	=50	=50	=50
2eee-	1r	1r	4ee-	12g	[1B-	2E-	2E-	1r	2gg	1b-	2E-	2E-	1r	1r	1r
.	.	.	.	12b-	.	.	.	.	.	.	.	.	.	.	.
.	.	.	.	12a-	.	.	.	.	.	.	.	.	.	.	.
.	.	.	8b-	12g	.	.	.	.	.	.	.	.	.	.	.
.	.	.	.	12b-	.	.	.	.	.	.	.	.	.	.	.
.	.	.	16r	.	.	.	.	.	.	.	.	.	.	.	.
.	.	.	.	12g	.	.	.	.	.	.	.	.	.	.	.
.	.	.	16bb-	.	.	.	.	.	.	.	.	.	.	.	.
2bb-	.	.	4ff	12b-	.	2D	2D	.	2ff	.	2D	2D	.	.	.
.	.	.	.	12f	.	.	.	.	.	.	.	.	.	.	.
.	.	.	.	12d	.	.	.	.	.	.	.	.	.	.	.
.	.	.	8b-	12b-	.	.	.	.	.	.	.	.	.	.	.
.	.	.	.	12f	.	.	.	.	.	.	.	.	.	.	.
.	.	.	16r	.	.	.	.	.	.	.	.	.	.	.	.
.	.	.	.	12d	.	.	.	.	.	.	.	.	.	.	.
.	.	.	16bb-	.	.	.	.	.	.	.	.	.	.	.	.
=51	=51	=51	=51	=51	=51	=51	=51	=51	=51	=51	=51	=51	=51	=51	=51
2ff	1r	1r	4ff	12f	2B-]	2D-	2D-	2ff	2.bb-	2ff	2D-	2D-	1r	1r	1r
.	.	.	.	12b-	.	.	.	.	.	.	.	.	.	.	.
.	.	.	.	12cc	.	.	.	.	.	.	.	.	.	.	.
.	.	.	8b-	12dd-	.	.	.	.	.	.	.	.	.	.	.
.	.	.	.	12b-	.	.	.	.	.	.	.	.	.	.	.
.	.	.	16r	.	.	.	.	.	.	.	.	.	.	.	.
.	.	.	.	12f	.	.	.	.	.	.	.	.	.	.	.
.	.	.	16bb-	.	.	.	.	.	.	.	.	.	.	.	.
4gg	.	.	4ee	12g	4b-	12C	12C	4gg	.	4ee	4C	4C	.	.	.
.	.	.	.	12b-	.	12C	12C	.	.	.	.	.	.	.	.
.	.	.	.	12g	.	12C	12C	.	.	.	.	.	.	.	.
4cc	.	.	4ee-	12a	4cc	12F	12F	4cc	4aa	4ee-	4F	4F	.	.	.
.	.	.	.	12cc	.	12F	12F	.	.	.	.	.	.	.	.
.	.	.	.	12a	.	12F	12F	.	.	.	.	.	.	.	.
=52	=52	=52	=52	=52	=52	=52	=52	=52	=52	=52	=52	=52	=52	=52	=52
4ff	1r	1r	4dd	12b-	4f	12BB-	12BB-	4ff	4bb-	4dd	4BB-	4BB-	1r	1r	1r
.	.	.	.	12f	.	12BB-	12BB-	.	.	.	.	.	.	.	.
.	.	.	.	12d	.	12BB-	12BB-	.	.	.	.	.	.	.	.
4ee-	.	.	12cc	12g	4e-	12E-	12E-	4ee-	12gg	4cc	2.r	2.r	.	.	.
.	.	.	12ee-	12e-	.	12E-	12E-	.	12ee-	.	.	.	.	.	.
.	.	.	12gg	12c	.	12E-	12E-	.	12cc	.	.	.	.	.	.
4dd	.	.	4b-	12d	4f	12F	12F	4dd	4b-	4b-	.	.	.	.	.
.	.	.	.	12f	.	12F	12F	.	.	.	.	.	.	.	.
.	.	.	.	12b-	.	12F	12F	.	.	.	.	.	.	.	.
4a	.	.	8.cc	12e-	4f	12FF	12FF	4a	8.cc	8.a	.	.	.	.	.
.	.	.	.	12f	.	12FF	12FF	.	.	.	.	.	.	.	.
.	.	.	.	12a	.	12FF	12FF	.	.	.	.	.	.	.	.
.	.	.	16b-	.	.	.	.	.	16b-	16b-	.	.	.	.	.
=53	=53	=53	=53	=53	=53	=53	=53	=53	=53	=53	=53	=53	=53	=53	=53
4b-	1r	1r	3..b-	12d	2.f	2BB-	2BB-	4b-	2b-	4b-	[1f	2.d	1r	1r	1r
.	.	.	.	12f	.	.	.	.	.	.	.	.	.	.	.
.	.	.	.	12e-	.	.	.	.	.	.	.	.	.	.	.
2.r	.	.	.	12d	.	.	.	2.r	.	2.r	.	.	.	.	.
.	.	.	.	12B-	.	.	.	.	.	.	.	.	.	.	.
.	.	.	.	12c	.	.	.	.	.	.	.	.	.	.	.
.	.	.	.	12d	.	2AA-	2AA-	.	12b-	.	.	.	.	.	.
.	.	.	12cc	12e-	.	.	.	.	12cc	.	.	.	.	.	.
.	.	.	12dd	12f	.	.	.	.	12dd	.	.	.	.	.	.
.	.	.	12dd	12f	4d	.	.	.	12dd	.	.	4c	.	.	.
.	.	.	12ee-	12d	.	.	.	.	12ee-	.	.	.	.	.	.
.	.	.	12ff	12c	.	.	.	.	12ff	.	.	.	.	.	.
=54	=54	=54	=54	=54	=54	=54	=54	=54	=54	=54	=54	=54	=54	=54	=54
1r	1r	1r	12ff	12B	2d	2GG	2GG	1r	12ff	1r	1f]	1B	1r	1r	1r
.	.	.	12b	12d	.	.	.	.	12b	.	.	.	.	.	.
.	.	.	12b	12f	.	.	.	.	12b	.	.	.	.	.	.
.	.	.	3b	12a-	.	.	.	.	3b	.	.	.	.	.	.
.	.	.	.	12f	.	.	.	.	.	.	.	.	.	.	.
.	.	.	.	12e-	.	.	.	.	.	.	.	.	.	.	.
.	.	.	.	12d	2B	2G	2G	.	.	.	.	.	.	.	.
.	.	.	12aa-	12B	.	.	.	.	12aa-	.	.	.	.	.	.
.	.	.	12gg	12c	.	.	.	.	12gg	.	.	.	.	.	.
.	.	.	12ff	12d	.	.	.	.	12ff	.	.	.	.	.	.
.	.	.	12ee-	12e-	.	.	.	.	12ee-	.	.	.	.	.	.
.	.	.	12dd	12f	.	.	.	.	12dd	.	.	.	.	.	.
=55	=55	=55	=55	=55	=55	=55	=55	=55	=55	=55	=55	=55	=55	=55	=55
1r	1r	1r	12cc	12g	4c	4E-	4E-	1r	12cc	1r	4e-	4c	1r	1r	1r
.	.	.	12b	12g	.	.	.	.	12b	.	.	.	.	.	.
.	.	.	12cc	12g	.	.	.	.	12cc	.	.	.	.	.	.
.	.	.	12dd	12g	4f	4BB	4BB	.	12dd	.	4B	4B	.	.	.
.	.	.	12cc	12g	.	.	.	.	12cc	.	.	.	.	.	.
.	.	.	12dd	12g	.	.	.	.	12dd	.	.	.	.	.	.
.	.	.	12ee-	12g	4e-	4C	4C	.	12ee-	.	4c	4c	.	.	.
.	.	.	12dd	12g	.	.	.	.	12dd	.	.	.	.	.	.
.	.	.	12cc	12g	.	.	.	.	12cc	.	.	.	.	.	.
.	.	.	12b-	12g	12g	4C#	4C#	.	12b-	.	4c#	4c#	.	.	.
.	.	.	12a	12f#	12f#	.	.	.	12a	.	.	.	.	.	.
.	.	.	12g	12g	12g	.	.	.	12g	.	.	.	.	.	.
=56	=56	=56	=56	=56	=56	=56	=56	=56	=56	=56	=56	=56	=56	=56	=56
2ddd	12dd	12D	12f#	12f#	12f#	12D	12D	2ddd	4f#	4a	4d	4d	12dd	12g	12dd
.	12dd	12D	12a	12d	12d	12D	12D	.	.	.	.	.	12dd	12g	12dd
.	12dd	12D	12dd	12f#	12f#	12D	12D	.	.	.	.	.	12dd	12g	12dd
.	12dd	12D	12ff#	12a	12a	12D	12D	.	4aa	4ff#	4c	4c	12dd	12g	12dd
.	12dd	12D	12aa	12dd	12dd	12D	12D	.	.	.	.	.	12dd	12g	12dd
.	12dd	12D	12dd	12cc	12cc	12D	12D	.	.	.	.	.	12dd	12g	12dd
2ccc#	12g	12D	12gg	12b-	12b-	12D	12D	2ccc#	2bb-	2gg	4B-	4B-	12cc	12cc	12gg
.	12g	12D	12ff#	12a	12a	12D	12D	.	.	.	.	.	12cc	12cc	12gg
.	12g	12D	12gg	12b-	12b-	12D	12D	.	.	.	.	.	12cc	12cc	12gg
.	12g	12D	12bb-	12c#	12c#	12D	12D	.	.	.	4G	4G	12cc	12cc	12gg
.	12g	12D	12gg	12b-	12b-	12D	12D	.	.	.	.	.	12cc	12cc	12gg
.	12g	12D	12cc#	12g	12g	12D	12D	.	.	.	.	.	12cc	12cc	12gg
=57	=57	=57	=57	=57	=57	=57	=57	=57	=57	=57	=57	=57	=57	=57	=57
2ddd	12dd	12D	12dd	12f#	12f#	12D	12D	2ddd	2aa	2ff#	4d	4d	12dd	12g	12dd
.	12dd	12D	12ff#	12d	12d	12D	12D	.	.	.	.	.	12dd	12g	12dd
.	12dd	12D	12aa	12f#	12f#	12D	12D	.	.	.	.	.	12dd	12g	12dd
.	12dd	12D	12ddd	12a	12a	12D	12D	.	.	.	4c	4c	12dd	12g	12dd
.	12dd	12D	12aa	12dd	12dd	12D	12D	.	.	.	.	.	12dd	12g	12dd
.	12dd	12D	12ff#	12cc	12cc	12D	12D	.	.	.	.	.	12dd	12g	12dd
2ccc#	12g	12D	12gg	12b-	12b-	12D	12D	2ccc#	2bb-	2gg	4B-	4B-	12cc	12cc	12gg
.	12g	12D	12ff#	12a	12a	12D	12D	.	.	.	.	.	12cc	12cc	12gg
.	12g	12D	12gg	12b-	12b-	12D	12D	.	.	.	.	.	12cc	12cc	12gg
.	12g	12D	12bb-	12c#	12c#	12D	12D	.	.	.	4G	4G	12cc	12cc	12gg
.	12g	12D	12gg	12b-	12b-	12D	12D	.	.	.	.	.	12cc	12cc	12gg
.	12g	12D	12cc#	12g	12g	12D	12D	.	.	.	.	.	12cc	12cc	12gg
=58	=58	=58	=58	=58	=58	=58	=58	=58	=58	=58	=58	=58	=58	=58	=58
4ddd	4dd	4D	12dd	4f#	4f#	4D	4D	4ddd	4aa	4ff#	4D	4D	4dd	4g	4dd
.	.	.	12ff#	.	.	.	.	.	.	.	.	.	.	.	.
.	.	.	12aa	.	.	.	.	.	.	.	.	.	.	.	.
4r	4r	4r	12gg	4r	4r	4r	4r	4r	4r	4r	4r	4r	4r	4r	4r
.	.	.	12ff#	.	.	.	.	.	.	.	.	.	.	.	.
.	.	.	12ee	.	.	.	.	.	.	.	.	.	.	.	.
4ddd	4dd	4D	12dd	4f# 4A	4d	4D	4D	4ddd	4aa	4ff#	4D	4D	4dd	4g	4dd
.	.	.	12ff#	.	.	.	.	.	.	.	.	.	.	.	.
.	.	.	12aa	.	.	.	.	.	.	.	.	.	.	.	.
4r	4r	4r	12gg	4r	4r	4r	4r	4r	4r	4r	4r	4r	4r	4r	4r
.	.	.	12ff#	.	.	.	.	.	.	.	.	.	.	.	.
.	.	.	12ee	.	.	.	.	.	.	.	.	.	.	.	.
=59	=59	=59	=59	=59	=59	=59	=59	=59	=59	=59	=59	=59	=59	=59	=59
4ddd	4dd	4D	12dd	4A 4f#	4D	4D	4D	4ddd	4aa	4ff#	4D	4D	4dd	4g	4dd
.	.	.	12ff#	.	.	.	.	.	.	.	.	.	.	.	.
.	.	.	12aa	.	.	.	.	.	.	.	.	.	.	.	.
2.r	2.r	2.r	12gg	2.r	2.r	2.r	2.r	2.r	2.r	2.r	2.r	2.r	2.r	2.r	2.r
.	.	.	12ff#	.	.	.	.	.	.	.	.	.	.	.	.
.	.	.	12ee	.	.	.	.	.	.	.	.	.	.	.	.
.	.	.	12dd	.	.	.	.	.	.	.	.	.	.	.	.
.	.	.	12ff#	.	.	.	.	.	.	.	.	.	.	.	.
.	.	.	12aa	.	.	.	.	.	.	.	.	.	.	.	.
.	.	.	12gg	.	.	.	.	.	.	.	.	.	.	.	.
.	.	.	12ff#	.	.	.	.	.	.	.	.	.	.	.	.
.	.	.	12ee	.	.	.	.	.	.	.	.	.	.	.	.
=60	=60	=60	=60	=60	=60	=60	=60	=60	=60	=60	=60	=60	=60	=60	=60
1r	1r	1r	12dd	1r	1r	1r	1r	1r	1r	1r	1r	1r	1r	1r	1r
.	.	.	12ff#	.	.	.	.	.	.	.	.	.	.	.	.
.	.	.	12aa	.	.	.	.	.	.	.	.	.	.	.	.
.	.	.	12gg	.	.	.	.	.	.	.	.	.	.	.	.
.	.	.	12ff#	.	.	.	.	.	.	.	.	.	.	.	.
.	.	.	12ee	.	.	.	.	.	.	.	.	.	.	.	.
.	.	.	12dd	.	.	.	.	.	.	.	.	.	.	.	.
.	.	.	12cc#	.	.	.	.	.	.	.	.	.	.	.	.
.	.	.	12cc	.	.	.	.	.	.	.	.	.	.	.	.
.	.	.	12b	.	.	.	.	.	.	.	.	.	.	.	.
.	.	.	12b-	.	.	.	.	.	.	.	.	.	.	.	.
.	.	.	12a	.	.	.	.	.	.	.	.	.	.	.	.
=61	=61	=61	=61	=61	=61	=61	=61	=61	=61	=61	=61	=61	=61	=61	=61
1r	1r	1r	4g	12G	4B 4d	4G	4G	1r	1r	1r	4G	1r	1r	1r	1r
.	.	.	.	12B	.	.	.	.	.	.	.	.	.	.	.
.	.	.	.	12d	.	.	.	.	.	.	.	.	.	.	.
.	.	.	8d	12G	4r	4r	4r	.	.	.	8D	.	.	.	.
.	.	.	.	12B	.	.	.	.	.	.	.	.	.	.	.
.	.	.	16r	.	.	.	.	.	.	.	16r	.	.	.	.
.	.	.	.	12d	.	.	.	.	.	.	.	.	.	.	.
.	.	.	16b	.	.	.	.	.	.	.	16B	.	.	.	.
.	.	.	4g	12G	4B 4d	4G	4G	.	.	.	4G	.	.	.	.
.	.	.	.	12B	.	.	.	.	.	.	.	.	.	.	.
.	.	.	.	12d	.	.	.	.	.	.	.	.	.	.	.
.	.	.	8d	12G	4r	4r	4r	.	.	.	8D	.	.	.	.
.	.	.	.	12B	.	.	.	.	.	.	.	.	.	.	.
.	.	.	16r	.	.	.	.	.	.	.	16r	.	.	.	.
.	.	.	.	12d	.	.	.	.	.	.	.	.	.	.	.
.	.	.	16gg	.	.	.	.	.	.	.	16g	.	.	.	.
=62	=62	=62	=62	=62	=62	=62	=62	=62	=62	=62	=62	=62	=62	=62	=62
2..r	1r	1r	4dd	12e	4e	[3..G	[3..G	1r	1r	1r	4d	1r	1r	1r	1r
.	.	.	.	12g	.	.	.	.	.	.	.	.	.	.	.
.	.	.	.	12e	.	.	.	.	.	.	.	.	.	.	.
.	.	.	8.cc	12f#	4f#	.	.	.	.	.	8.c	.	.	.	.
.	.	.	.	12a	.	.	.	.	.	.	.	.	.	.	.
.	.	.	.	12f#	.	.	.	.	.	.	.	.	.	.	.
.	.	.	32b	.	.	.	.	.	.	.	32B	.	.	.	.
.	.	.	32cc	.	.	.	.	.	.	.	32c	.	.	.	.
.	.	.	8b	12g	8g	.	.	.	.	.	8B	.	.	.	.
.	.	.	.	12d	.	24G]	24G]	.	.	.	.	.	.	.	.
.	.	.	6..r	.	4.r	4.r	4.r	.	.	.	4.r	.	.	.	.
.	.	.	.	12B	.	.	.	.	.	.	.	.	.	.	.
.	.	.	.	8G	.	.	.	.	.	.	.	.	.	.	.
16r	.	.	.	8r	.	.	.	.	.	.	.	.	.	.	.
.	.	.	48r	.	.	.	.	.	.	.	.	.	.	.	.
16ee	.	.	16ee	.	.	.	.	.	.	.	.	.	.	.	.
=63	=63	=63	=63	=63	=63	=63	=63	=63	=63	=63	=63	=63	=63	=63	=63
4b	1r	1r	4b	12d	4f	4d	1r	1r	1r	1r	1r	1r	1r	1r	1r
.	.	.	.	12f	.	.	.	.	.	.	.	.	.	.	.
.	.	.	.	12g#	.	.	.	.	.	.	.	.	.	.	.
8cc	.	.	8cc	8a	8e	8c	.	.	.	.	.	.	.	.	.
16r	.	.	16r	8r	8r	8r	.	.	.	.	.	.	.	.	.
16ccc	.	.	16ccc	.	.	.	.	.	.	.	.	.	.	.	.
4ff#	.	.	4ff#	12d	4a	4d	.	.	.	.	.	.	.	.	.
.	.	.	.	12a	.	.	.	.	.	.	.	.	.	.	.
.	.	.	.	12cc	.	.	.	.	.	.	.	.	.	.	.
8gg	.	.	8gg	8b	8g	8e	.	.	.	.	.	.	.	.	.
16r	.	.	16r	16r	16r	16r	.	.	.	.	.	.	.	.	.
16gg#	.	.	16gg#	16dd	16B	16B	.	.	.	.	.	.	.	.	.
=64	=64	=64	=64	=64	=64	=64	=64	=64	=64	=64	=64	=64	=64	=64	=64
8aa	1r	1r	8aa	8ee	8c	8c	1r	1r	1r	1r	1r	1r	1r	1r	1r
16r	.	.	16r	16r	16r	16r	.	.	.	.	.	.	.	.	.
16bb	.	.	16bb	16dd	16d	16B	.	.	.	.	.	.	.	.	.
8ccc	.	.	8ccc	8cc	8e	8A	.	.	.	.	.	.	.	.	.
16r	.	.	16r	16r	16r	16r	.	.	.	.	.	.	.	.	.
16ff#	.	.	16ff#	16a	16c	16D	.	.	.	.	.	.	.	.	.
8gg	.	.	8gg	8b	8B	8G	.	.	.	.	.	.	.	.	.
4.r	.	.	6..r	4.r	4.r	4.r	.	.	.	.	.	.	.	.	.
.	.	.	48r	.	.	.	.	.	.	.	.	.	.	.	.
.	.	.	16G	.	.	.	.	.	.	.	.	.	.	.	.
=65	=65	=65	=65	=65	=65	=65	=65	=65	=65	=65	=65	=65	=65	=65	=65
1r	1r	1r	4f	4d	4G	4BB	4BB	1r	1r	1r	1r	1r	1r	1r	1r
.	.	.	8e	8c	8G	8C	8C	.	.	.	.	.	.	.	.
.	.	.	16r	8r	8r	8r	8r	.	.	.	.	.	.	.	.
.	.	.	16g	.	.	.	.	.	.	.	.	.	.	.	.
.	.	.	4B	4G	4D	4F	4F	.	.	.	.	.	.	.	.
.	.	.	8c	8c	8E	8E	8E	.	.	.	.	.	.	.	.
.	.	.	16r	8r	8r	8r	8r	.	.	.	.	.	.	.	.
.	.	.	16G	.	.	.	.	.	.	.	.	.	.	.	.
=66	=66	=66	=66	=66	=66	=66	=66	=66	=66	=66	=66	=66	=66	=66	=66
1r	1r	1r	[1ee	[1cc	4..r	1r	1r	1r	2..r	1r	1r	1r	1r	1r	1r
.	.	.	.	.	16A	.	.	.	.	.	.	.	.	.	.
.	.	.	.	.	[2f#	.	.	.	.	.	.	.	.	.	.
.	.	.	.	.	.	.	.	.	16r	.	.	.	.	.	.
.	.	.	.	.	.	.	.	.	16a	.	.	.	.	.	.
=67	=67	=67	=67	=67	=67	=67	=67	=67	=67	=67	=67	=67	=67	=67	=67
1r	1r	1r	2ee]	2cc]	2f#]	1r	1r	1r	12aa	1r	1r	1r	1r	1r	1r
.	.	.	.	.	.	.	.	.	12bb	.	.	.	.	.	.
.	.	.	.	.	.	.	.	.	12gg#	.	.	.	.	.	.
.	.	.	.	.	.	.	.	.	12aa	.	.	.	.	.	.
.	.	.	.	.	.	.	.	.	12bb	.	.	.	.	.	.
.	.	.	.	.	.	.	.	.	12gg#	.	.	.	.	.	.
.	.	.	[2dd	[2b	2b	.	.	.	12aa	.	.	.	.	.	.
.	.	.	.	.	.	.	.	.	12bb	.	.	.	.	.	.
.	.	.	.	.	.	.	.	.	12ccc	.	.	.	.	.	.
.	.	.	.	.	.	.	.	.	12ddd	.	.	.	.	.	.
.	.	.	.	.	.	.	.	.	12aa	.	.	.	.	.	.
.	.	.	.	.	.	.	.	.	12ff#	.	.	.	.	.	.
=68	=68	=68	=68	=68	=68	=68	=68	=68	=68	=68	=68	=68	=68	=68	=68
1r	1r	1r	2dd]	2b]	2e	1r	1r	1r	12gg	1r	1r	1r	1r	1r	1r
.	.	.	.	.	.	.	.	.	12aa	.	.	.	.	.	.
.	.	.	.	.	.	.	.	.	12ff#	.	.	.	.	.	.
.	.	.	.	.	.	.	.	.	12gg	.	.	.	.	.	.
.	.	.	.	.	.	.	.	.	12aa	.	.	.	.	.	.
.	.	.	.	.	.	.	.	.	12ff#	.	.	.	.	.	.
.	.	.	[2cc	[2a	2a	.	.	.	12gg	.	.	.	.	.	.
.	.	.	.	.	.	.	.	.	12aa	.	.	.	.	.	.
.	.	.	.	.	.	.	.	.	12bb	.	.	.	.	.	.
.	.	.	.	.	.	.	.	.	12ccc	.	.	.	.	.	.
.	.	.	.	.	.	.	.	.	12gg	.	.	.	.	.	.
.	.	.	.	.	.	.	.	.	12ee	.	.	.	.	.	.
=69	=69	=69	=69	=69	=69	=69	=69	=69	=69	=69	=69	=69	=69	=69	=69
1r	1r	1r	2cc]	2a]	1d	1r	1r	1r	12ff#	1r	1r	1r	1r	1r	1r
.	.	.	.	.	.	.	.	.	12gg	.	.	.	.	.	.
.	.	.	.	.	.	.	.	.	12ee	.	.	.	.	.	.
.	.	.	.	.	.	.	.	.	12ff#	.	.	.	.	.	.
.	.	.	.	.	.	.	.	.	12aa	.	.	.	.	.	.
.	.	.	.	.	.	.	.	.	12dd	.	.	.	.	.	.
.	.	.	4b	4g	.	.	.	.	12gg	.	.	.	.	.	.
.	.	.	.	.	.	.	.	.	12bb	.	.	.	.	.	.
.	.	.	.	.	.	.	.	.	12dd	.	.	.	.	.	.
.	.	.	12cc	4f#	.	.	.	.	12cc	.	.	.	.	.	.
.	.	.	12aa	.	.	.	.	.	12aa	.	.	.	.	.	.
.	.	.	12cc	.	.	.	.	.	12cc	.	.	.	.	.	.
=70	=70	=70	=70	=70	=70	=70	=70	=70	=70	=70	=70	=70	=70	=70	=70
1r	1r	1r	12b	4g	4g	4G	4G	1r	12b	1r	1r	1r	1r	1r	1r
.	.	.	12gg	.	.	.	.	.	12gg	.	.	.	.	.	.
.	.	.	12dd#	.	.	.	.	.	12dd#	.	.	.	.	.	.
.	.	.	12ff#	2g	4c	4C	4C	.	12ff#	.	.	.	.	.	.
.	.	.	12ee	.	.	.	.	.	12ee	.	.	.	.	.	.
.	.	.	12cc	.	.	.	.	.	12cc	.	.	.	.	.	.
.	.	.	12b	.	4d	4D	4D	.	12b	.	.	.	.	.	.
.	.	.	12dd	.	.	.	.	.	12dd	.	.	.	.	.	.
.	.	.	12g	.	.	.	.	.	12g	.	.	.	.	.	.
.	.	.	12cc	4f#	4D	4DD	4DD	.	12cc	.	.	.	.	.	.
.	.	.	12a	.	.	.	.	.	12a	.	.	.	.	.	.
.	.	.	12f#	.	.	.	.	.	12f#	.	.	.	.	.	.
=71	=71	=71	=71	=71	=71	=71	=71	=71	=71	=71	=71	=71	=71	=71	=71
4gg	12g	12GG	4G 4g	12B 12d	12G	12GG	12GG	4gg	4gg	4g	1d	1B	12cc	12e	12g
.	12g	12GG	.	12B 12d	12B	12GG	12GG	.	.	.	.	.	12cc	12e	12g
.	12g	12GG	.	12d 12B	12d	12GG	12GG	.	.	.	.	.	12cc	12e	12g
8dd	12g	12GG	8d	12B 12d	12G	12GG	12GG	8dd	8dd	8d	.	.	12cc	12e	12g
.	12g	12GG	.	12d 12B	12B	12GG	12GG	.	.	.	.	.	12cc	12e	12g
16r	.	.	16r	.	.	.	.	16r	16r	16r	.	.	.	.	.
.	12g	12GG	.	12B 12d	12d	12GG	12GG	.	.	.	.	.	12cc	12e	12g
16bb	.	.	16b	.	.	.	.	16bb	16bb	16b	.	.	.	.	.
4gg	12g	12GG	4g	12d 12B	12G	12GG	12GG	4gg	4gg	4g	.	.	12cc	12e	12g
.	12g	12GG	.	12d 12B	12B	12GG	12GG	.	.	.	.	.	12cc	12e	12g
.	12g	12GG	.	12B 12d	12d	12GG	12GG	.	.	.	.	.	12cc	12e	12g
8dd	12g	12GG	8d	12d 12B	12G	12GG	12GG	8dd	8dd	8d	.	.	12cc	12e	12g
.	12g	12GG	.	12B 12d	12B	12GG	12GG	.	.	.	.	.	12cc	12e	12g
16r	.	.	16r	.	.	.	.	16r	16r	16r	.	.	.	.	.
.	12g	12GG	.	12B 12d	12d	12GG	12GG	.	.	.	.	.	12cc	12e	12g
16ggg	.	.	16gg	.	.	.	.	16ggg	16gg	16gg	.	.	.	.	.
=72	=72	=72	=72	=72	=72	=72	=72	=72	=72	=72	=72	=72	=72	=72	=72
4ddd	12dd	12GG	4dd	12G 12e	12e	12GG	12GG	4ddd	4dd	4dd	4e	4c	12cc	12cc	12dd
.	12dd	12GG	.	12e 12G	12g	12GG	12GG	.	.	.	.	.	12cc	12cc	12dd
.	12dd	12GG	.	12G 12e	12e	12GG	12GG	.	.	.	.	.	12cc	12cc	12dd
8.ccc	12dd	12GG	8.cc	12f# 12A	12f#	12GG	12GG	8.ccc	8.cc	8.cc	4f#	4A	12dd	12g	12dd
.	12dd	12GG	.	12f# 12A	12a	12GG	12GG	.	.	.	.	.	12dd	12g	12dd
.	12dd	12GG	.	12A 12f#	12f#	12GG	12GG	.	.	.	.	.	12dd	12g	12dd
32bb	.	.	32b	.	.	.	.	32bb	32b	32b	.	.	.	.	.
32ccc	.	.	32cc	.	.	.	.	32ccc	32cc	32cc	.	.	.	.	.
8bb	8g	8GG	8b	8B 8g	8d	8GG	8GG	8bb	8b	8b	8g	8B	8cc	8e	8dd
6..r	4.r	4.r	6..r	6..r	4.r	4.r	4.r	6..r	4.r	4.r	4.r	4.r	4.r	4.r	4.r
48r	.	.	48r	48r	.	.	.	48r	.	.	.	.	.	.	.
16bb	.	.	16bb	16gg	.	.	.	16gg	.	.	.	.	.	.	.
=73	=73	=73	=73	=73	=73	=73	=73	=73	=73	=73	=73	=73	=73	=73	=73
8aa	1r	2.r	8aa	8ff#	1r	1r	1r	8ff#	2..r	2..r	1r	1r	1r	1r	1r
16r	.	.	16r	16r	.	.	.	16r	.	.	.	.	.	.	.
16gg	.	.	16gg	16ee	.	.	.	16ee	.	.	.	.	.	.	.
8ff#	.	.	8ff#	8dd	.	.	.	8dd	.	.	.	.	.	.	.
16r	.	.	16r	16r	.	.	.	16r	.	.	.	.	.	.	.
16ee	.	.	16ee	16cc	.	.	.	16cc	.	.	.	.	.	.	.
8dd	.	.	8dd	8b	.	.	.	8b	.	.	.	.	.	.	.
4.r	.	.	4.r	4.r	.	.	.	4.r	.	.	.	.	.	.	.
.	.	4GG	.	.	.	.	.	.	.	.	.	.	.	.	.
.	.	.	.	.	.	.	.	.	16r	16r	.	.	.	.	.
.	.	.	.	.	.	.	.	.	16gg	16ee	.	.	.	.	.
=74	=74	=74	=74	=74	=74	=74	=74	=74	=74	=74	=74	=74	=74	=74	=74
1r	1r	2.r	2..r	2..r	1r	1r	1r	1r	8ff#	8dd	1r	1r	1r	1r	1r
.	.	.	.	.	.	.	.	.	16r	16r	.	.	.	.	.
.	.	.	.	.	.	.	.	.	16ee	16cc	.	.	.	.	.
.	.	.	.	.	.	.	.	.	8dd	8b	.	.	.	.	.
.	.	.	.	.	.	.	.	.	16r	16r	.	.	.	.	.
.	.	.	.	.	.	.	.	.	16cc	16a	.	.	.	.	.
.	.	.	.	.	.	.	.	.	8b	8g	.	.	.	.	.
.	.	.	.	.	.	.	.	.	4.r	4.r	.	.	.	.	.
.	.	4GG	.	.	.	.	.	.	.	.	.	.	.	.	.
.	.	.	16r	16r	.	.	.	.	.	.	.	.	.	.	.
.	.	.	16ee	16cc	.	.	.	.	.	.	.	.	.	.	.
=75	=75	=75	=75	=75	=75	=75	=75	=75	=75	=75	=75	=75	=75	=75	=75
8.r	1r	8.r	8dd	8b	1r	1r	1r	8.r	8.r	8.r	8.r	8.r	8.r	8.r	1r
.	.	.	6..r	6..r	.	.	.	.	.	.	.	.	.	.	.
16ccc	.	16D	.	.	.	.	.	16cc	16ff#	16a	16d	16d	16dd	16g	.
8bb	.	8GG	.	.	.	.	.	8b	8gg	8b	8G	8G	8ee	8cc	.
6..r	.	6..r	.	.	.	.	.	6..r	6..r	6..r	6..r	6..r	6..r	6..r	.
.	.	.	48r	48r	.	.	.	.	.	.	.	.	.	.	.
.	.	.	16ee	16cc	.	.	.	.	.	.	.	.	.	.	.
.	.	.	8dd	8b	.	.	.	.	.	.	.	.	.	.	.
.	.	.	6..r	6..r	.	.	.	.	.	.	.	.	.	.	.
48r	.	48r	.	.	.	.	.	48r	48r	48r	48r	48r	48r	48r	.
16ccc	.	16D	.	.	.	.	.	16cc	16ff#	16a	16d	16d	16dd	16g	.
8bb	.	8GG	.	.	.	.	.	8b	8gg	8b	8G	8G	8ee	8cc	.
8r	.	8r	.	.	.	.	.	8r	8r	8r	8r	8r	8r	8r	.
.	.	.	48r	48r	.	.	.	.	.	.	.	.	.	.	.
.	.	.	16ee	16cc	.	.	.	.	.	.	.	.	.	.	.
=76	=76	=76	=76	=76	=76	=76	=76	=76	=76	=76	=76	=76	=76	=76	=76
1r	1r	1r	8dd	8b	8.r	8.r	1r	1r	1r	1r	2r	2r	1r	1r	1r
.	.	.	6..r	6..r	.	.	.	.	.	.	.	.	.	.	.
.	.	.	.	.	16e	16c	.	.	.	.	.	.	.	.	.
.	.	.	.	.	8d	8B	.	.	.	.	.	.	.	.	.
.	.	.	.	.	3..r	3..r	.	.	.	.	.	.	.	.	.
.	.	.	48r	48r	.	.	.	.	.	.	.	.	.	.	.
.	.	.	16ee	16cc	.	.	.	.	.	.	.	.	.	.	.
.	.	.	8dd	8b	.	.	.	.	.	.	8.r	8.r	.	.	.
.	.	.	6..r	6..r	.	.	.	.	.	.	.	.	.	.	.
.	.	.	.	.	.	.	.	.	.	.	16e	16c	.	.	.
.	.	.	.	.	.	.	.	.	.	.	8d	8B	.	.	.
.	.	.	.	.	.	.	.	.	.	.	8r	8r	.	.	.
.	.	.	48r	48r	.	.	.	.	.	.	.	.	.	.	.
.	.	.	16ee	16cc	.	.	.	.	.	.	.	.	.	.	.
.	.	.	.	.	24r	24r	.	.	.	.	.	.	.	.	.
=77	=77	=77	=77	=77	=77	=77	=77	=77	=77	=77	=77	=77	=77	=77	=77
1r	1r	1r	8dd	8b	1r	1r	1r	1r	1r	1r	1r	1r	1r	1r	1r
.	.	.	2..r	2..r	.	.	.	.	.	.	.	.	.	.	.
=78	=78	=78	=78	=78	=78	=78	=78	=78	=78	=78	=78	=78	=78	=78	=78
2r	1r	1r	4ee	4cc	1r	1r	1r	2r	1r	1r	1r	1r	1r	1r	1r
.	.	.	2.r	2.r	.	.	.	.	.	.	.	.	.	.	.
4eee	.	.	.	.	.	.	.	4ccc	.	.	.	.	.	.	.
4r	.	.	.	.	.	.	.	4r	.	.	.	.	.	.	.
=79	=79	=79	=79	=79	=79	=79	=79	=79	=79	=79	=79	=79	=79	=79	=79
2r	1r	1r	4ee	4cc	1r	1r	1r	2r	1r	1r	1r	1r	1r	1r	1r
.	.	.	2.r	2.r	.	.	.	.	.	.	.	.	.	.	.
4eee	.	.	.	.	.	.	.	4ccc	.	.	.	.	.	.	.
4r	.	.	.	.	.	.	.	4r	.	.	.	.	.	.	.
=80	=80	=80	=80	=80	=80	=80	=80	=80	=80	=80	=80	=80	=80	=80	=80
4..r	2r	2r	4..r	4..r	4..r	4..r	4..r	4..r	4..r	4..r	4CC	4CC	2r	2r	2r
.	.	.	.	.	.	.	.	.	.	.	8.r	8.r	.	.	.
16eee	.	.	16ee	16cc	16c	16C	16C	16eee	16ee	16cc	16c	16c	.	.	.
8.ddd	8.dd	8.D	8.dd	8.b	8.d	8.D	8.D	8.ddd	8.dd	8.b	8.d	8.d	8.ee	8.cc	8.dd
16ccc	16dd	16D	16cc	16a	16d	16D	16D	16ccc	16cc	16a	16d	16d	16ee	16cc	16dd
8.bb	8.dd	8.D	8.b	8.g	8.d	8.D	8.D	8.bb	8.b	8.g	8.D	8.D	8.dd	8.g	8.dd
16aa	16dd	16D	16a	16f#	16d	16D	16D	16aa	16a	16f#	16D	16D	16dd	16g	16dd
=81	=81	=81	=81	=81	=81	=81	=81	=81	=81	=81	=81	=81	=81	=81	=81
4gg	2g	12GG	4g	12B	12d	12G	12G	4gg	4g	4g	12B	12G	2ee	2cc	2dd
.	.	12GG	.	12d	12d	12G	12G	.	.	.	12B	12G	.	.	.
.	.	12GG	.	12g	12d	12G	12G	.	.	.	12B	12G	.	.	.
8.r	.	12GG	8.r	12B	12d	12G	12G	8.r	8.r	8.r	12B	12G	.	.	.
.	.	12GG	.	12d	12d	12G	12G	.	.	.	12B	12G	.	.	.
.	.	12GG	.	12g	12d	12G	12G	.	.	.	12B	12G	.	.	.
16gg	.	.	16g	.	.	.	.	16gg	16g	16g	.	.	.	.	.
8aa	2dd	12D	8a	12c	12f# 12A	12D	12D	8aa	8a	8f#	12c	12F#	2dd	2g	2dd
.	.	12D	.	12d	12f# 12A	12D	12D	.	.	.	12c	12F#	.	.	.
16r	.	.	16r	.	.	.	.	16r	16r	16r	.	.	.	.	.
.	.	12D	.	12f#	12f# 12A	12D	12D	.	.	.	12c	12F#	.	.	.
16bb	.	.	16b	.	.	.	.	16bb	16b	16g	.	.	.	.	.
8ccc	.	12D	8cc	12c	12A 12f#	12D	12D	8ccc	8cc	8a	12c	12F#	.	.	.
.	.	12D	.	12d	12A 12f#	12D	12D	.	.	.	12c	12F#	.	.	.
16r	.	.	16r	.	.	.	.	16r	16r	16r	.	.	.	.	.
.	.	12D	.	12f#	12f# 12A	12D	12D	.	.	.	12c	12F#	.	.	.
16ddd	.	.	16dd	.	.	.	.	16ddd	16dd	16b	.	.	.	.	.
=82	=82	=82	=82	=82	=82	=82	=82	=82	=82	=82	=82	=82	=82	=82	=82
8bb	2g	12GG	8b	12B	12B 12g	12G	12G	8bb	8b	4g	12B	12G	2ee	2cc	2dd
.	.	12GG	.	12d	12B 12g	12G	12G	.	.	.	12B	12G	.	.	.
16r	.	.	16r	.	.	.	.	16r	16r	.	.	.	.	.	.
.	.	12GG	.	12g	12g 12B	12G	12G	.	.	.	12B	12G	.	.	.
16ggg	.	.	16gg	.	.	.	.	16ggg	16gg	.	.	.	.	.	.
8ddd	.	12GG	8dd	12B	12B 12g	12G	12G	8ddd	8dd	8.r	12B	12G	.	.	.
.	.	12GG	.	12d	12B 12g	12G	12G	.	.	.	12B	12G	.	.	.
16r	.	.	16r	.	.	.	.	16r	16r	.	.	.	.	.	.
.	.	12GG	.	12g	12g 12B	12G	12G	.	.	.	12B	12G	.	.	.
16bb	.	.	16b	.	.	.	.	16bb	16b	16g	.	.	.	.	.
8ccc	2dd	12D	8cc	12c	12A 12f#	12D	12D	8ccc	8cc	8a	12c	12F#	2dd	2g	2dd
.	.	12D	.	12d	12f# 12A	12D	12D	.	.	.	12c	12F#	.	.	.
16r	.	.	16r	.	.	.	.	16r	16r	16r	.	.	.	.	.
.	.	12D	.	12f#	12f# 12A	12D	12D	.	.	.	12c	12F#	.	.	.
16aa	.	.	16a	.	.	.	.	16aa	16a	16a	.	.	.	.	.
8ddd	.	12D	8dd	12c	12f# 12A	12D	12D	8ddd	8dd	8f#	12c	12F#	.	.	.
.	.	12D	.	12d	12A 12f#	12D	12D	.	.	.	12c	12F#	.	.	.
16r	.	.	16r	.	.	.	.	16r	16r	16r	.	.	.	.	.
.	.	12D	.	12f#	12f# 12A	12D	12D	.	.	.	12c	12F#	.	.	.
16ff#	.	.	16f#	.	.	.	.	16ff#	16f#	16a	.	.	.	.	.
=83	=83	=83	=83	=83	=83	=83	=83	=83	=83	=83	=83	=83	=83	=83	=83
4gg	4g	4GG	4g	12B	4g 4B	4G	4G	4gg	4g	4g	4B	4G	4cc	4e	4dd
.	.	.	.	12d	.	.	.	.	.	.	.	.	.	.	.
.	.	.	.	12g	.	.	.	.	.	.	.	.	.	.	.
8dd	2.r	2.r	8d	12B	4r	4r	4r	8dd	8d	2.r	2.r	2.r	2.r	2.r	2.r
.	.	.	.	12d	.	.	.	.	.	.	.	.	.	.	.
3..r	.	.	16r	.	.	.	.	3..r	3..r	.	.	.	.	.	.
.	.	.	.	12g	.	.	.	.	.	.	.	.	.	.	.
.	.	.	16g	.	.	.	.	.	.	.	.	.	.	.	.
.	.	.	8a	12c	4f# 4A	4D	4D	.	.	.	.	.	.	.	.
.	.	.	.	12d	.	.	.	.	.	.	.	.	.	.	.
.	.	.	16r	.	.	.	.	.	.	.	.	.	.	.	.
.	.	.	.	12f#	.	.	.	.	.	.	.	.	.	.	.
.	.	.	16b	.	.	.	.	.	.	.	.	.	.	.	.
.	.	.	8cc	12c	4r	4r	4r	.	.	.	.	.	.	.	.
.	.	.	.	12d	.	.	.	.	.	.	.	.	.	.	.
.	.	.	16r	.	.	.	.	.	.	.	.	.	.	.	.
.	.	.	.	12f#	.	.	.	.	.	.	.	.	.	.	.
.	.	.	16dd	.	.	.	.	.	.	.	.	.	.	.	.
24r	.	.	.	.	.	.	.	24r	24r	.	.	.	.	.	.
=84	=84	=84	=84	=84	=84	=84	=84	=84	=84	=84	=84	=84	=84	=84	=84
1r	1r	1r	8b	12B	4B 4g	4G	4G	1r	1r	1r	1r	1r	1r	1r	1r
.	.	.	.	12d	.	.	.	.	.	.	.	.	.	.	.
.	.	.	16r	.	.	.	.	.	.	.	.	.	.	.	.
.	.	.	.	12g	.	.	.	.	.	.	.	.	.	.	.
.	.	.	16gg	.	.	.	.	.	.	.	.	.	.	.	.
.	.	.	8dd	12B	4r	4r	4r	.	.	.	.	.	.	.	.
.	.	.	.	12d	.	.	.	.	.	.	.	.	.	.	.
.	.	.	16r	.	.	.	.	.	.	.	.	.	.	.	.
.	.	.	.	12g	.	.	.	.	.	.	.	.	.	.	.
.	.	.	16b	.	.	.	.	.	.	.	.	.	.	.	.
.	.	.	8cc	12c	4A 4f#	4D	4D	.	.	.	.	.	.	.	.
.	.	.	.	12d	.	.	.	.	.	.	.	.	.	.	.
.	.	.	16r	.	.	.	.	.	.	.	.	.	.	.	.
.	.	.	.	12f#	.	.	.	.	.	.	.	.	.	.	.
.	.	.	16a	.	.	.	.	.	.	.	.	.	.	.	.
.	.	.	8dd	12c	4r	4r	4r	.	.	.	.	.	.	.	.
.	.	.	.	12d	.	.	.	.	.	.	.	.	.	.	.
.	.	.	16r	.	.	.	.	.	.	.	.	.	.	.	.
.	.	.	.	12f#	.	.	.	.	.	.	.	.	.	.	.
.	.	.	16f#	.	.	.	.	.	.	.	.	.	.	.	.
=85	=85	=85	=85	=85	=85	=85	=85	=85	=85	=85	=85	=85	=85	=85	=85
2r	1r	1r	4g	12B	4B 4g	4G	4G	2r	2r	2r	2r	2r	1r	1r	1r
.	.	.	.	12d	.	.	.	.	.	.	.	.	.	.	.
.	.	.	.	12g	.	.	.	.	.	.	.	.	.	.	.
.	.	.	8.r	12B	4r	4r	4r	.	.	.	.	.	.	.	.
.	.	.	.	12d	.	.	.	.	.	.	.	.	.	.	.
.	.	.	.	12g	.	.	.	.	.	.	.	.	.	.	.
.	.	.	16b	.	.	.	.	.	.	.	.	.	.	.	.
4aa	.	.	8a	12c	4f# 4A	4D	4D	4aa	4ff#	4cc	4D	4D	.	.	.
.	.	.	.	12d	.	.	.	.	.	.	.	.	.	.	.
.	.	.	6..r	.	.	.	.	.	.	.	.	.	.	.	.
.	.	.	.	12f#	.	.	.	.	.	.	.	.	.	.	.
4r	.	.	.	12c	4r	4r	4r	4r	4r	4r	4r	4r	.	.	.
.	.	.	.	12d	.	.	.	.	.	.	.	.	.	.	.
.	.	.	48r	12f#	.	.	.	.	.	.	.	.	.	.	.
.	.	.	16dd	.	.	.	.	.	.	.	.	.	.	.	.
=86	=86	=86	=86	=86	=86	=86	=86	=86	=86	=86	=86	=86	=86	=86	=86
4bb	1r	1r	8b	12B	4B 4g	4G	4G	4bb	4gg	4b	4G	4G	1r	1r	1r
.	.	.	.	12d	.	.	.	.	.	.	.	.	.	.	.
.	.	.	6..r	.	.	.	.	.	.	.	.	.	.	.	.
.	.	.	.	12g	.	.	.	.	.	.	.	.	.	.	.
4r	.	.	.	12B	4r	4r	4r	4r	4r	4r	4r	4r	.	.	.
.	.	.	.	12d	.	.	.	.	.	.	.	.	.	.	.
.	.	.	48r	12g	.	.	.	.	.	.	.	.	.	.	.
.	.	.	16b	.	.	.	.	.	.	.	.	.	.	.	.
4aa	.	.	8a	12c	4f# 4A	4D	4D	4aa	4ff#	4cc	4D	4D	.	.	.
.	.	.	.	12d	.	.	.	.	.	.	.	.	.	.	.
.	.	.	6..r	.	.	.	.	.	.	.	.	.	.	.	.
.	.	.	.	12f#	.	.	.	.	.	.	.	.	.	.	.
4r	.	.	.	12c	4r	4r	4r	4r	4r	4r	4r	4r	.	.	.
.	.	.	.	12d	.	.	.	.	.	.	.	.	.	.	.
.	.	.	48r	12f#	.	.	.	.	.	.	.	.	.	.	.
.	.	.	16d	.	.	.	.	.	.	.	.	.	.	.	.
=87	=87	=87	=87	=87	=87	=87	=87	=87	=87	=87	=87	=87	=87	=87	=87
4bb	1r	1r	8g	12B	4B 4g	4GG	4GG	4bb	4gg	4b	4G	4G	1r	1r	1r
.	.	.	.	12d	.	.	.	.	.	.	.	.	.	.	.
.	.	.	4.r	.	.	.	.	.	.	.	.	.	.	.	.
.	.	.	.	12g	.	.	.	.	.	.	.	.	.	.	.
4r	.	.	.	12B	4r	4r	4r	4r	4r	4r	4r	4r	.	.	.
.	.	.	.	12d	.	.	.	.	.	.	.	.	.	.	.
.	.	.	.	12g	.	.	.	.	.	.	.	.	.	.	.
8gg	.	.	8d	8B	8D 8B	8GG	8GG	8gg	8gg	8b	8G	8G	.	.	.
8r	.	.	8r	8r	8r	8r	8r	8r	8r	8r	8r	8r	.	.	.
8dd	.	.	8d	8B	8B 8D	8GG	8GG	8dd	8gg	8b	8G	8G	.	.	.
8r	.	.	8r	8r	8r	8r	8r	8r	8r	8r	8r	8r	.	.	.
=88	=88	=88	=88	=88	=88	=88	=88	=88	=88	=88	=88	=88	=88	=88	=88
8b	1r	1r	8d	8B	8B 8D	8GG	8GG	8b	8gg	8b	8G	8G	1r	1r	1r
2..r	.	.	2..r	2..r	2..r	2..r	2..r	2..r	2..r	2..r	2..r	2..r	.	.	.
==	==	==	==	==	==	==	==	==	==	==	==	==	==	==	==
*-	*-	*-	*-	*-	*-	*-	*-	*-	*-	*-	*-	*-	*-	*-	*-
!!!RWG1: This file contains only pitch and duration data.
!!!RWG2: Transposing instruments are not transposed.
!!!RWG3: Spines may have incompatible meters.
!!!RWG4: Durations of rests and tied notes may be interpreted.
!!!RWG: Key is interpreted using the Humdrum key tool.
!!!AFT: stage1
!!!END: 1997/04/15
!!format changes:
!!content changes:
!!public access: complete
!!!KEY: 1056295717
!!!EMD: Converted from MuseData to Humdrum Dec 16, 2000, by Andreas Kornstaedt using muse2kern.
